; generated by PrusaSlicer 2.5.0+win64 on 2022-12-22 at 16:35:04 UTC


;
;
; 

; external perimeters extrusion width = 0.60mm
; perimeters extrusion width = 0.50mm
; infill extrusion width = 0.50mm
; solid infill extrusion width = 0.50mm
; top infill extrusion width = 0.45mm
; first layer extrusion width = 0.42mm

M73 P0 R24
M73 Q0 S24
M201 X1000 Y1000 Z200 E5000 ; sets maximum accelerations, mm/sec^2
M203 X200 Y200 Z12 E120 ; sets maximum feedrates, mm / sec
M204 P1250 R1250 T1250 ; sets acceleration (P, T) and retract acceleration (R), mm/sec^2
M205 X8.00 Y8.00 Z0.40 E4.50 ; sets the jerk limits, mm/sec
M205 S0 T0 ; sets the minimum extruding and travel feed rate, mm/sec
M107
;TYPE:Custom
M862.3 P "MK3S" ; printer model check
M862.1 P0.4 ; nozzle diameter check
M115 U3.11.0 ; tell printer latest fw version
G90 ; use absolute coordinates
M83 ; extruder relative mode
M104 S215 ; set extruder temp
M140 S60 ; set bed temp
M190 S60 ; wait for bed temp
M109 S215 ; wait for extruder temp
G28 W ; home all without mesh bed level
G80 ; mesh bed leveling

G1 Z0.2 F720
G1 Y-3 F1000 ; go outside print area
G92 E0
G1 X60 E9 F1000 ; intro line
G1 X100 E12.5 F1000 ; intro line

G92 E0
M221 S95

; Don't change E values below. Excessive value can damage the printer.

M907 E538 ; set extruder motor current
G21 ; set units to millimeters
G90 ; use absolute coordinates
M83 ; use relative distances for extrusion
M900 K0.05 ; Filament gcode LA 1.5
M900 K30 ; Filament gcode LA 1.0
M107
;LAYER_CHANGE
;Z:0.2
;HEIGHT:0.2
;BEFORE_LAYER_CHANGE
G92 E0.0
;0.2


G1 E-.8 F2100
G1 Z.4 F720
;AFTER_LAYER_CHANGE
;0.2
G1 X101.026 Y93.118 F10800
G1 Z.2 F720
G1 E.8 F2100
M204 S800
;TYPE:Skirt/Brim
;WIDTH:0.42
G1 F1200
G1 X106.815 Y87.358 E.25606
G1 X107.909 Y86.735 E.03948
G1 X108.515 Y86.559 E.0198
G1 X109.328 Y86.473 E.02563
G1 X140.858 Y86.48 E.98859
G1 X141.538 Y86.572 E.02151
G1 X142.33 Y86.834 E.02616
G1 X142.883 Y87.138 E.0198
G1 X143.519 Y87.652 E.02563
G1 X149.142 Y93.315 E.25021
G1 X149.765 Y94.409 E.03948
G1 X150.02 Y95.642 E.03947
G1 X150.027 Y114.172 E.58098
G1 X149.881 Y115.236 E.0337
G1 X149.497 Y116.163 E.03144
G1 X148.974 Y116.882 E.02788
G1 X143.185 Y122.642 E.25606
G1 X142.091 Y123.265 E.03947
G1 X141.485 Y123.441 E.0198
G1 X140.672 Y123.527 E.02563
G1 X108.884 Y123.499 E.99668
G1 X107.858 Y123.244 E.03314
G1 X106.815 Y122.642 E.03777
G1 X100.858 Y116.685 E.26415
G1 X100.235 Y115.591 E.03947
G1 X100.059 Y114.985 E.0198
G1 X99.973 Y114.172 E.02563
G1 X99.973 Y95.828 E.57514
G1 X100.059 Y95.015 E1.02563
M73 P1 R24
M73 Q1 S24
G1 X100.334 Y94.17 E.02788
G1 X100.993 Y93.168 E.03759
M204 S1000
; printing object encoder-mount-v1.STL id:0 copy 0
;WIPE_START
G1 F8640
G1 X103.322 Y90.843 E-.76
;WIPE_END
G1 E-.04 F2100
G1 Z.6 F720
G1 X131.185 Y111.784 F10800
G1 Z.2 F720
G1 E.8 F2100
M204 S800
;TYPE:Perimeter
;WIDTH:0.466032
G1 F1200
G1 X131.15 Y111.787 E.00123
;WIDTH:0.419999
G1 X118.779 Y111.787 E.38789
;WIDTH:0.466034
G1 X118.691 Y111.778 E.0031
;WIDTH:0.512068
G1 X118.603 Y111.769 E.00343
;WIDTH:0.558102
G1 X118.516 Y111.76 E.00377
;WIDTH:0.604136
G1 X118.428 Y111.751 E.00411
;WIDTH:0.65017
G1 X118.341 Y111.743 E.00445
G1 X118.382 Y111.838 E.00526
;WIDTH:0.604136
G1 X118.423 Y111.934 E.00486
;WIDTH:0.558102
G1 X118.464 Y112.029 E.00446
;WIDTH:0.512068
G1 X118.506 Y112.125 E.00406
;WIDTH:0.466034
G1 X118.547 Y112.22 E.00366
;WIDTH:0.419999
G1 X118.72 Y112.796 E.01886
G1 X118.686 Y113.397 E.01886
G1 X118.51 Y113.859 E.01551
G1 X118.187 Y114.262 E.01619
G1 X118.036 Y114.388 E.00616
G1 X117.499 Y114.659 E.01886
G1 X117 Y114.738 E.01585
G1 X116.501 Y114.659 E.01584
G1 X115.964 Y114.388 E.01886
G1 X115.813 Y114.262 E.00616
G1 X115.46 Y113.798 E.01826
G1 X115.293 Y113.324 E.01578
G1 X115.28 Y112.796 E.01653
G1 X115.314 Y112.603 E.00616
G1 X115.5 Y112.122 E.01617
G1 X115.847 Y111.702 E.01707
G1 X116.316 Y111.409 E.01737
G1 X116.501 Y111.341 E.00616
G1 X117.098 Y111.271 E.01886
G1 X117.684 Y111.409 E.01886
;WIDTH:0.464022
G1 X117.801 Y111.46 E.0045
;WIDTH:0.508044
G1 X117.919 Y111.512 E.00497
;WIDTH:0.552066
G1 X118.036 Y111.564 E.00544
;WIDTH:0.596088
G1 X118.154 Y111.616 E.00591
;WIDTH:0.64011
G1 X118.271 Y111.668 E.00638
G1 X118.251 Y111.593 E.00385
;WIDTH:0.595188
G1 X118.232 Y111.518 E.00356
;WIDTH:0.550265
G1 X118.212 Y111.443 E.00327
;WIDTH:0.505342
G1 X118.212 Y111.093 E.01346
;WIDTH:0.462671
G1 X118.213 Y110.742 E.01222
;WIDTH:0.419999
G1 X118.213 Y98.779 E.37512
;WIDTH:0.461662
G1 X118.206 Y98.702 E.00266
;WIDTH:0.503325
G1 X118.2 Y98.626 E.00293
;WIDTH:0.544987
G1 X118.193 Y98.55 E.00319
;WIDTH:0.578386
G1 X118.205 Y98.494 E.00253
;WIDTH:0.611784
G1 X118.216 Y98.439 E.00269
;WIDTH:0.645182
G1 X118.228 Y98.383 E.00284
G1 X118.119 Y98.425 E.00583
;WIDTH:0.600146
G1 X118.01 Y98.466 E.0054
;WIDTH:0.555109
G1 X117.901 Y98.508 E.00496
;WIDTH:0.510073
G1 X117.793 Y98.55 E.00452
;WIDTH:0.465036
G1 X117.684 Y98.591 E.00409
;WIDTH:0.419999
G1 X117.098 Y98.729 E.01886
G1 X116.501 Y98.659 E.01886
G1 X116.316 Y98.591 E.00616
G1 X115.857 Y98.308 E.01691
G1 X115.5 Y97.878 E.01753
G1 X115.314 Y97.397 E.01617
G1 X115.28 Y97.078 E.01006
G1 X115.314 Y96.603 E.01493
G1 X115.498 Y96.126 E.01604
G1 X115.88 Y95.671 E.01864
G1 X116.316 Y95.409 E.01595
G1 X116.902 Y95.271 E.01886
G1 X117.098 Y95.271 E.00616
G1 X117.684 Y95.409 E.01886
G1 X118.12 Y95.671 E.01594
G1 X118.449 Y96.05 E.01575
G1 X118.547 Y96.22 E.00616
G1 X118.72 Y96.796 E.01886
G1 X118.686 Y97.397 E.01886
G1 X118.529 Y97.823 E.01423
;WIDTH:0.464022
G1 X118.477 Y97.925 E.004
;WIDTH:0.508045
G1 X118.426 Y98.027 E.00442
;WIDTH:0.552067
G1 X118.374 Y98.129 E.00483
;WIDTH:0.59609
G1 X118.323 Y98.23 E.00525
;WIDTH:0.640112
G1 X118.271 Y98.332 E.00567
G1 X118.373 Y98.308 E.00518
;WIDTH:0.59609
G1 X118.474 Y98.285 E.0048
;WIDTH:0.552067
G1 X118.576 Y98.261 E.00441
;WIDTH:0.508045
G1 X118.677 Y98.237 E.00403
;WIDTH:0.464022
G1 X118.779 Y98.213 E.00365
;WIDTH:0.419999
G1 X131.221 Y98.213 E.39014
;WIDTH:0.464022
G1 X131.323 Y98.237 E.00365
;WIDTH:0.508044
G1 X131.424 Y98.261 E.00403
;WIDTH:0.552066
G1 X131.526 Y98.285 E.00441
;WIDTH:0.596088
G1 X131.627 Y98.308 E.0048
;WIDTH:0.64011
G1 X131.729 Y98.332 E.00518
G1 X131.677 Y98.23 E.00567
;WIDTH:0.596088
G1 X131.626 Y98.129 E.00525
;WIDTH:0.552066
G1 X131.574 Y98.027 E.00483
;WIDTH:0.508044
G1 X131.523 Y97.925 E.00442
;WIDTH:0.464022
G1 X131.471 Y97.823 E.004
;WIDTH:0.419999
G1 X131.314 Y97.397 E.01423
G1 X131.28 Y96.796 E.01886
G1 X131.453 Y96.22 E.01886
G1 X131.551 Y96.05 E.00616
G1 X131.88 Y95.671 E.01575
G1 X132.316 Y95.409 E.01595
G1 X132.902 Y95.271 E.01886
G1 X133.098 Y95.271 E.00616
G1 X133.684 Y95.409 E.01886
G1 X134.12 Y95.671 E.01595
G1 X134.449 Y96.05 E.01575
G1 X134.627 Y96.441 E.01348
G1 X134.72 Y96.796 E.01151
G1 X134.715 Y97.279 E.01512
G1 X134.547 Y97.78 E.01657
G1 X134.449 Y97.95 E.00616
G1 X134.111 Y98.336 E.01608
G1 X133.586 Y98.636 E.01898
G1 X133.098 Y98.729 E.01556
G1 X132.501 Y98.659 E.01886
;WIDTH:0.461662
G1 X132.311 Y98.586 E.00706
;WIDTH:0.503325
G1 X132.122 Y98.514 E.00776
;WIDTH:0.544987
G1 X131.932 Y98.442 E.00847
;WIDTH:0.578386
G1 X131.879 Y98.422 E.00253
;WIDTH:0.611784
G1 X131.826 Y98.403 E.00269
;WIDTH:0.645182
G1 X131.772 Y98.383 E.00284
G1 X131.784 Y98.439 E.00284
;WIDTH:0.611784
G1 X131.795 Y98.494 E.00269
;WIDTH:0.578386
G1 X131.807 Y98.55 E.00253
;WIDTH:0.544987
G1 X131.8 Y98.786 E.00985
;WIDTH:0.503325
G1 X131.794 Y99.022 E.00903
;WIDTH:0.461662
G1 X131.787 Y99.258 E.00821
;WIDTH:0.419999
G1 X131.787 Y111.221 E.37512
;WIDTH:0.46267
G1 X131.788 Y111.332 E.00386
;WIDTH:0.505341
G1 X131.788 Y111.443 E.00425
;WIDTH:0.550264
G1 X131.768 Y111.518 E.00327
;WIDTH:0.595187
G1 X131.749 Y111.593 E.00356
;WIDTH:0.64011
G1 X131.729 Y111.668 E.00385
G1 X131.826 Y111.628 E.00521
;WIDTH:0.596088
G1 X131.923 Y111.588 E.00482
;WIDTH:0.552066
G1 X132.02 Y111.548 E.00444
;WIDTH:0.508044
G1 X132.117 Y111.508 E.00406
;WIDTH:0.464022
G1 X132.214 Y111.468 E.00367
;WIDTH:0.419999
G1 X132.501 Y111.341 E.00984
G1 X133.098 Y111.271 E.01886
G1 X133.586 Y111.364 E.01556
G1 X134.036 Y111.612 E.01613
G1 X134.187 Y111.738 E.00616
G1 X134.524 Y112.166 E.01707
G1 X134.715 Y112.721 E.01841
G1 X134.707 Y113.324 E.01888
G1 X134.539 Y113.799 E.0158
G1 X134.187 Y114.262 E.01825
G1 X134.036 Y114.388 E.00616
G1 X133.499 Y114.659 E.01886
G1 X133 Y114.738 E.01585
G1 X132.501 Y114.659 E.01584
G1 X131.964 Y114.388 E.01886
G1 X131.813 Y114.262 E.00616
G1 X131.49 Y113.86 E.01618
G1 X131.314 Y113.397 E.01551
G1 X131.28 Y112.796 E.01886
G1 X131.453 Y112.22 E.01886
;WIDTH:0.466032
G1 X131.494 Y112.125 E.00366
;WIDTH:0.512065
G1 X131.536 Y112.029 E.00406
;WIDTH:0.558097
G1 X131.577 Y111.934 E.00446
;WIDTH:0.60413
G1 X131.618 Y111.838 E.00486
;WIDTH:0.650162
G1 X131.659 Y111.743 E.00526
G1 X131.558 Y111.751 E.00517
;WIDTH:0.60413
G1 X131.456 Y111.76 E.00477
;WIDTH:0.558097
G1 X131.354 Y111.769 E.00438
;WIDTH:0.512065
G1 X131.252 Y111.778 E.00399
;WIDTH:0.466032
G1 X131.244 Y111.779 E.00026
M204 S1000
G1 X131.15 Y111.41 F10800
M204 S800
;TYPE:External perimeter
;WIDTH:0.419999
G1 F1200
G1 X118.779 Y111.41 E.38789
G1 X118.637 Y111.346 E.00487
G1 X118.59 Y111.221 E.00417
G1 X118.59 Y98.779 E.39014
G1 X118.637 Y98.654 E.00417
G1 X118.779 Y98.59 E.00487
G1 X131.221 Y98.59 E.39014
G1 X131.375 Y98.669 E.0054
G1 X131.41 Y98.897 E.00725
G1 X131.41 Y111.221 E.38642
G1 X131.343 Y111.366 E.00499
M73 P1 R23
G1 X131.208 Y111.397 E.00432
M204 S1000
G1 X131.026 Y111.79 F10800
;WIPE_START
G1 F8640
G1 X127.917 Y111.4 E-.76
;WIPE_END
G1 E-.04 F2100
G1 Z.6 F720
G1 X115.661 Y112.856 F10800
G1 Z.2 F720
G1 E.8 F2100
M204 S800
G1 F1200
G1 X115.668 Y112.732 E.00389
G1 X115.84 Y112.293 E.01479
G1 X116.152 Y111.939 E.01479
G1 X116.566 Y111.713 E.01479
G1 X117.033 Y111.642 E.01479
G1 X117.495 Y111.735 E.01479
G1 X117.898 Y111.981 E.01479
G1 X118.192 Y112.349 E.01479
G1 X118.343 Y112.796 E.01479
G1 X118.332 Y113.268 E.01479
G1 X118.16 Y113.707 E.01479
G1 X117.848 Y114.061 E.01479
G1 X117.434 Y114.287 E.01479
G1 X116.967 Y114.358 E.01479
G1 X116.505 Y114.265 E.01479
G1 X116.102 Y114.019 E.01479
G1 X115.808 Y113.651 E.01479
G1 X115.657 Y113.204 E.01479
G1 X115.657 Y112.916 E.00903
M204 S1000
G1 X115.552 Y112.796 F10800
;WIPE_START
G1 F8640
G1 X115.668 Y112.732 E-.04248
G1 X115.84 Y112.293 E-.10893
G1 X116.152 Y111.939 E-.10893
G1 X116.566 Y111.713 E-.10894
G1 X117.033 Y111.642 E-.10893
G1 X117.495 Y111.735 E-.10893
G1 X117.898 Y111.981 E-.10893
G1 X118.071 Y112.197 E-.06394
;WIPE_END
G1 E-.04 F2100
G1 Z.6 F720
G1 X117.526 Y98.237 F10800
G1 Z.2 F720
G1 E.8 F2100
M204 S800
G1 F1200
G1 X117.434 Y98.287 E.00331
G1 X116.967 Y98.358 E.01479
G1 X116.561 Y98.286 E.01294
G1 X116.117 Y98.035 E.016
G1 X115.808 Y97.651 E.01546
G1 X115.657 Y97.204 E.01479
G1 X115.668 Y96.732 E.01479
G1 X115.84 Y96.293 E.01479
G1 X116.152 Y95.939 E.01479
G1 X116.566 Y95.713 E.01479
G1 X117.033 Y95.642 E.01479
G1 X117.495 Y95.735 E.01479
G1 X117.898 Y95.981 E.01479
G1 X118.192 Y96.349 E.01479
G1 X118.343 Y96.796 E.01479
G1 X118.332 Y97.268 E.01479
G1 X118.16 Y97.707 E.01479
G1 X117.848 Y98.061 E.01479
G1 X117.579 Y98.208 E.0096
M204 S1000
G1 X117.531 Y98.342 F10800
;WIPE_START
G1 F8640
G1 X117.434 Y98.287 E-.03823
G1 X116.967 Y98.358 E-.10893
G1 X116.561 Y98.286 E-.09529
G1 X116.117 Y98.035 E-.11785
G1 X115.808 Y97.651 E-.11386
G1 X115.657 Y97.204 E-.10892
G1 X115.668 Y96.732 E-.10894
G1 X115.776 Y96.458 E-.06799
;WIPE_END
G1 E-.04 F2100
G1 Z.6 F720
G1 X131.992 Y97.882 F10800
G1 Z.2 F720
G1 E.8 F2100
M204 S800
G1 F1200
G1 X131.808 Y97.651 E.00927
G1 X131.657 Y97.204 E.01479
G1 X131.668 Y96.732 E.01479
G1 X131.84 Y96.293 E.01479
G1 X132.152 Y95.939 E.01479
G1 X132.566 Y95.713 E.01479
G1 X133.033 Y95.642 E.01479
G1 X133.495 Y95.735 E.01479
G1 X133.898 Y95.981 E.01479
G1 X134.192 Y96.349 E.01479
G1 X134.343 Y96.796 E.01479
G1 X134.332 Y97.268 E.01479
G1 X134.16 Y97.707 E.01479
G1 X133.871 Y98.046 E.01395
G1 X133.434 Y98.287 E.01566
G1 X132.967 Y98.358 E.01479
G1 X132.505 Y98.265 E.01479
G1 X132.102 Y98.019 E.01479
G1 X132.03 Y97.929 E.00364
M204 S1000
G1 X131.705 Y97.951 F10800
;WIPE_START
G1 F8640
G1 X131.808 Y97.651 E-.08216
G1 X131.657 Y97.204 E-.10893
G1 X131.668 Y96.732 E-.10893
G1 X131.84 Y96.293 E-.10893
G1 X132.152 Y95.939 E-.10893
G1 X132.566 Y95.713 E-.10894
G1 X133.033 Y95.642 E-.10893
G1 X133.136 Y95.663 E-.02426
;WIPE_END
G1 E-.04 F2100
G1 Z.6 F720
G1 X132.131 Y114.037 F10800
G1 Z.2 F720
G1 E.8 F2100
M204 S800
G1 F1200
G1 X131.808 Y113.651 E.01581
G1 X131.657 Y113.204 E.01479
G1 X131.668 Y112.732 E.01479
G1 X131.84 Y112.293 E.01479
G1 X132.152 Y111.939 E.01479
G1 X132.566 Y111.713 E.01479
G1 X133.033 Y111.642 E.01479
G1 X133.495 Y111.735 E.01479
G1 X133.898 Y111.981 E.01479
G1 X134.192 Y112.349 E.01479
G1 X134.343 Y112.796 E.01479
G1 X134.332 Y113.268 E.01479
G1 X134.16 Y113.707 E.01479
G1 X133.848 Y114.061 E.01479
G1 X133.434 Y114.287 E.01479
G1 X133.033 Y114.358 E.01277
G1 X132.505 Y114.265 E.01681
G1 X132.183 Y114.068 E.01183
M204 S1000
G1 X131.756 Y114.175 F10800
;WIPE_START
G1 F8640
G1 X131.808 Y113.651 E-.12961
G1 X131.657 Y113.204 E-.10892
G1 X131.668 Y112.732 E-.10894
G1 X131.84 Y112.293 E-.10893
G1 X132.152 Y111.939 E-.10893
G1 X132.566 Y111.713 E-.10893
G1 X132.933 Y111.657 E-.08573
;WIPE_END
G1 E-.04 F2100
G1 Z.6 F720
G1 X146.341 Y100.744 F10800
G1 Z.2 F720
G1 E.8 F2100
M204 S800
;TYPE:Perimeter
G1 F1200
G1 X146.072 Y100.439 E.01275
G1 X145.631 Y100 E.01949
G1 X144.786 Y99.408 E.03237
G1 X143.765 Y98.922 E.03546
G1 X142.578 Y98.604 E.03853
G1 X141.549 Y98.514 E.03237
G1 X140.325 Y98.621 E.03853
G1 X139.235 Y98.922 E.03545
G1 X138.214 Y99.408 E.03545
G1 X137.406 Y99.974 E.03094
G1 X137.036 Y100.321 E.01591
G1 X136.5 Y100.869 E.02404
G1 X135.859 Y101.8 E.03545
G1 X135.389 Y102.828 E.03545
G1 X135.104 Y103.922 E.03545
G1 X135.014 Y105.049 E.03545
G1 X135.121 Y106.175 E.03545
G1 X135.422 Y107.265 E.03545
G1 X135.859 Y108.2 E.03237
G1 X136.418 Y109.014 E.03094
G1 X136.748 Y109.391 E.01574
G1 X137.33 Y109.971 E.02575
G1 X138.3 Y110.641 E.03697
G1 X139.235 Y111.078 E.03237
G1 X140.422 Y111.396 E.03853
G1 X141.549 Y111.486 E.03545
G1 X142.578 Y111.396 E.03237
G1 X143.765 Y111.078 E.03853
G1 X144.7 Y110.641 E.03237
M73 Q2 S24
G1 X145.631 Y110 E.03546
G1 X145.938 Y109.699 E.01347
G1 X146.341 Y109.256 E.01876
G1 X146.314 Y109.871 E.01931
G1 X146.313 Y114.016 E.12997
G1 X146.279 Y114.24 E.00711
M73 P2 R23
G1 X146.184 Y114.43 E.00666
G1 X140.851 Y119.747 E.23609
G1 X140.618 Y119.813 E.0076
G1 X109.281 Y119.801 E.98256
G1 X109.07 Y119.684 E.00757
G1 X103.753 Y114.351 E.23609
G1 X103.687 Y114.118 E.0076
M73 Q2 S23
G1 X103.684 Y109.837 E.13424
G1 X103.648 Y109.242 E.01867
G1 X103.928 Y109.561 E.01331
G1 X104.369 Y110 E.01949
G1 X105.214 Y110.592 E.03237
G1 X106.235 Y111.078 E.03546
G1 X106.533 Y111.166 E.00972
G1 X107.422 Y111.396 E.02881
G1 X108.451 Y111.486 E.03237
G1 X109.578 Y111.396 E.03545
G1 X110.281 Y111.216 E.02276
G1 X110.765 Y111.078 E.01577
G1 X111.786 Y110.592 E.03545
G1 X112.594 Y110.026 E.03094
G1 X112.964 Y109.679 E.01591
G1 X113.5 Y109.131 E.02404
G1 X114.141 Y108.2 E.03545
G1 X114.578 Y107.265 E.03237
G1 X114.879 Y106.175 E.03545
G1 X114.986 Y105.049 E.03545
G1 X114.896 Y103.922 E.03545
G1 X114.576 Y102.731 E.03867
G1 X114.11 Y101.754 E.03393
G1 X113.582 Y100.986 E.02921
G1 X113.252 Y100.609 E.01574
G1 X112.67 Y100.029 E.02575
G1 X111.7 Y99.359 E.03697
G1 X110.765 Y98.922 E.03237
G1 X109.578 Y98.604 E.03853
G1 X108.451 Y98.514 E.03545
G1 X107.422 Y98.604 E.03237
G1 X106.235 Y98.922 E.03853
G1 X105.3 Y99.359 E.03237
G1 X104.369 Y100 E.03546
G1 X104.062 Y100.301 E.01347
G1 X103.659 Y100.744 E.01876
G1 X103.686 Y100.129 E.01931
G1 X103.687 Y95.984 E.12997
G1 X103.721 Y95.76 E.00711
G1 X103.816 Y95.57 E.00666
G1 X109.149 Y90.253 E.23609
G1 X109.382 Y90.187 E.0076
G1 X140.708 Y90.198 E.98222
G1 X140.931 Y90.317 E.00791
G1 X145.651 Y95.037 E.2093
G1 X146.258 Y95.671 E.02754
G1 X146.313 Y95.904 E.0075
G1 X146.339 Y100.684 E.14988
M204 S1000
;WIPE_START
G1 F8640
G1 X146.072 Y100.439 E-.08377
G1 X145.631 Y100 E-.14357
G1 X144.786 Y99.408 E-.23839
G1 X143.765 Y98.922 E-.26111
