; generated by PrusaSlicer 2.5.0+win64 on 2023-01-04 at 17:06:17 UTC


;
;
; 

; external perimeters extrusion width = 0.60mm
; perimeters extrusion width = 0.50mm
; infill extrusion width = 0.50mm
; solid infill extrusion width = 0.50mm
; top infill extrusion width = 0.45mm
; first layer extrusion width = 0.42mm

M73 P0 R10
M73 Q0 S10
M201 X1000 Y1000 Z200 E5000 ; sets maximum accelerations, mm/sec^2
M203 X200 Y200 Z12 E120 ; sets maximum feedrates, mm / sec
M204 P1250 R1250 T1250 ; sets acceleration (P, T) and retract acceleration (R), mm/sec^2
M205 X8.00 Y8.00 Z0.40 E4.50 ; sets the jerk limits, mm/sec
M205 S0 T0 ; sets the minimum extruding and travel feed rate, mm/sec
M107
;TYPE:Custom
M862.3 P "MK3S" ; printer model check
M862.1 P0.4 ; nozzle diameter check
M115 U3.11.0 ; tell printer latest fw version
G90 ; use absolute coordinates
M83 ; extruder relative mode
M104 S215 ; set extruder temp
M140 S60 ; set bed temp
M190 S60 ; wait for bed temp
M109 S215 ; wait for extruder temp
G28 W ; home all without mesh bed level
G80 ; mesh bed leveling

G1 Z0.2 F720
G1 Y-3 F1000 ; go outside print area
G92 E0
G1 X60 E9 F1000 ; intro line
G1 X100 E12.5 F1000 ; intro line

G92 E0
M221 S95

; Don't change E values below. Excessive value can damage the printer.

M907 E538 ; set extruder motor current
G21 ; set units to millimeters
G90 ; use absolute coordinates
M83 ; use relative distances for extrusion
M900 K0.05 ; Filament gcode LA 1.5
M900 K30 ; Filament gcode LA 1.0
M107
;LAYER_CHANGE
;Z:0.2
;HEIGHT:0.2
;BEFORE_LAYER_CHANGE
G92 E0.0
;0.2


G1 E-.8 F2100
G1 Z.4 F720
;AFTER_LAYER_CHANGE
;0.2
G1 X98.015 Y93.693 F10800
G1 Z.2 F720
M73 P1 R10
M73 Q1 S10
G1 E.8 F2100
M204 S800
;TYPE:Skirt/Brim
;WIDTH:0.42
G1 F1200
G1 X99.06 Y92.817 E.04278
G1 X100 Y92.623 E.03008
G1 X150 Y92.623 E1.56771
G1 X151.307 Y93.015 E.04278
G1 X152.183 Y94.06 E.04278
G1 X152.377 Y95 E.03008
G1 X152.377 Y115 E.62709
G1 X151.985 Y116.307 E.04278
G1 X150.94 Y117.183 E.04278
G1 X150 Y117.377 E.03008
G1 X100 Y117.377 E1.56771
G1 X98.693 Y116.985 E.04278
M73 P2 R10
M73 Q2 S10
G1 X97.817 Y115.94 E.04278
G1 X97.623 Y115 E.03008
G1 X97.623 Y95 E.62709
G1 X97.997 Y93.75 E.0409
M204 S1000
; printing object plate-spacer.STL id:0 copy 0
;WIPE_START
G1 F8640
G1 X99.06 Y92.817 E-.32671
G1 X100 Y92.623 E-.22155
G1 X100.917 Y92.623 E-.21174
;WIPE_END
G1 E-.04 F2100
G1 Z.6 F720
G1 X149.213 Y114.213 F10800
G1 Z.2 F720
G1 E.8 F2100
M204 S800
;TYPE:Perimeter
;WIDTH:0.419999
G1 F1200
G1 X100.787 Y114.213 E1.51836
G1 X100.787 Y95.787 E.57773
G1 X149.213 Y95.787 E1.51836
M73 Q3 S10
G1 X149.213 Y114.153 E.57585
M204 S1000
M73 P3 R10
G1 X149.59 Y114.59 F10800
M204 S800
;TYPE:External perimeter
G1 F1200
G1 X100.41 Y114.59 E1.542
G1 X100.41 Y95.41 E.60137
G1 X149.59 Y95.41 E1.542
M73 P4 R10
M73 Q4 S10
G1 X149.59 Y114.53 E.59949
M204 S1000
G1 X149.193 Y114.541 F10800
;WIPE_START
G1 F8640
G1 X146.299 Y114.534 E-.76
;WIPE_END
G1 E-.04 F2100
G1 Z.6 F720
G1 X124.679 Y107.505 F10800
G1 Z.2 F720
G1 E.8 F2100
M204 S800
;TYPE:Perimeter
G1 F1200
G1 X124.133 Y107.381 E.01754
G1 X123.568 Y107.091 E.01992
G1 X123.093 Y106.669 E.01992
G1 X122.738 Y106.143 E.01992
G1 X122.525 Y105.544 E.01992
G1 X122.467 Y104.912 E.01992
G1 X122.569 Y104.285 E.01992
G1 X122.814 Y103.72 E.01931
G1 X123.212 Y103.205 E.0204
G1 X123.718 Y102.814 E.02003
G1 X124.301 Y102.564 E.01992
G1 X124.91 Y102.468 E.01931
G1 X125.558 Y102.528 E.0204
G1 X126.158 Y102.746 E.02003
G1 X126.682 Y103.105 E.01992
G1 X127.101 Y103.583 E.01992
G1 X127.387 Y104.15 E.01992
G1 X127.524 Y104.77 E.01992
G1 X127.534 Y104.883 E.00356
G1 X127.501 Y105.405 E.01639
G1 X127.322 Y106.014 E.01992
G1 X126.997 Y106.56 E.01992
G1 X126.546 Y107.008 E.01991
G1 X125.998 Y107.329 E.01992
G1 X125.388 Y107.504 E.01992
G1 X124.738 Y107.518 E.02039
M204 S1000
G1 X124.722 Y107.137 F10800
M204 S800
;TYPE:External perimeter
G1 F1200
G1 X124.227 Y107.016 E.01598
G1 X123.75 Y106.761 E.01697
G1 X123.352 Y106.394 E.01697
G1 X123.057 Y105.941 E.01697
G1 X122.884 Y105.428 E.01697
G1 X122.844 Y104.888 E.01697
G1 X122.939 Y104.355 E.01697
G1 X123.156 Y103.879 E.01639
G1 X123.504 Y103.443 E.0175
G1 X123.939 Y103.119 E.01701
G1 X124.44 Y102.915 E.01697
G1 X124.958 Y102.842 E.01639
G1 X125.513 Y102.903 E.0175
G1 X126.019 Y103.097 E.01701
G1 X126.461 Y103.41 E.01697
G1 X126.81 Y103.823 E.01697
G1 X127.046 Y104.31 E.01697
G1 X127.153 Y104.841 E.01697
G1 X127.125 Y105.381 E.01697
G1 X126.964 Y105.898 E.01697
G1 X126.679 Y106.358 E.01697
G1 X126.288 Y106.733 E.01697
G1 X125.817 Y106.999 E.01697
G1 X125.294 Y107.139 E.01697
G1 X124.781 Y107.145 E.01608
M204 S1000
G1 X124.483 Y107.458 F10800
;WIPE_START
G1 F8640
G1 X124.227 Y107.016 E-.13136
G1 X123.75 Y106.761 E-.12496
G1 X123.352 Y106.394 E-.12497
G1 X123.057 Y105.941 E-.12497
G1 X122.884 Y105.428 E-.12496
G1 X122.844 Y104.888 E-.12497
G1 X122.847 Y104.872 E-.00381
;WIPE_END
G1 E-.04 F2100
G1 Z.6 F720
G1 X148.333 Y95.9 F10800
G1 Z.2 F720
M73 Q5 S10
G1 E.8 F2100
M204 S800
;TYPE:Solid infill
;WIDTH:0.421989
G1 F1200
G1 X148.93 Y96.497 E.0266
G1 X148.93 Y97.033 E.0169
M73 P5 R10
G1 X147.967 Y96.07 E.04294
G1 X147.431 Y96.07 E.0169
G1 X148.93 Y97.569 E.06683
G1 X148.93 Y98.105 E.0169
G1 X146.895 Y96.07 E.09073
G1 X146.359 Y96.07 E.0169
G1 X148.93 Y98.641 E.11462
G1 X148.93 Y99.177 E.0169
G1 X145.823 Y96.07 E.13852
G1 X145.286 Y96.07 E.0169
G1 X148.93 Y99.714 E.16242
G1 X148.93 Y100.25 E.0169
G1 X144.75 Y96.07 E.18631
G1 X144.214 Y96.07 E.0169
G1 X148.93 Y100.786 E.21021
G1 X148.93 Y101.322 E.0169
G1 X143.678 Y96.07 E.23411
G1 X143.142 Y96.07 E.0169
G1 X148.93 Y101.858 E.258
G1 X148.93 Y102.394 E.0169
G1 X142.606 Y96.07 E.2819
G1 X142.07 Y96.07 E.0169
G1 X148.93 Y102.93 E.30579
G1 X148.93 Y103.466 E.0169
G1 X141.534 Y96.07 E.32969
G1 X140.998 Y96.07 E.0169
G1 X148.93 Y104.002 E.35359
G1 X148.93 Y104.538 E.0169
G1 X140.462 Y96.07 E.37748
G1 X139.926 Y96.07 E.0169
G1 X148.93 Y105.074 E.40138
G1 X148.93 Y105.61 E.0169
M73 Q6 S10
G1 X139.39 Y96.07 E.42528
G1 X138.853 Y96.07 E.0169
M73 P6 R10
G1 X148.93 Y106.147 E.44917
G1 X148.93 Y106.683 E.0169
G1 X138.317 Y96.07 E.47307
G1 X137.781 Y96.07 E.0169
G1 X148.93 Y107.219 E.49697
G1 X148.93 Y107.755 E.0169
M73 P6 R9
G1 X137.245 Y96.07 E.52086
G1 X136.709 Y96.07 E.0169
G1 X148.93 Y108.291 E.54476
G1 X148.93 Y108.827 E.0169
G1 X136.173 Y96.07 E.56865
G1 X135.637 Y96.07 E.0169
M73 Q6 S9
G1 X148.93 Y109.363 E.59255
G1 X148.93 Y109.899 E.0169
M73 P7 R9
M73 Q7 S9
G1 X135.101 Y96.07 E.61645
G1 X134.565 Y96.07 E.0169
G1 X148.93 Y110.435 E.64034
G1 X148.93 Y110.971 E.0169
G1 X134.029 Y96.07 E.66424
G1 X133.493 Y96.07 E.0169
G1 X148.93 Y111.507 E.68814
G1 X148.93 Y112.043 E.0169
G1 X132.957 Y96.07 E.71203
G1 X132.42 Y96.07 E.0169
G1 X148.93 Y112.58 E.73593
G1 X148.93 Y113.116 E.0169
M73 P8 R9
M73 Q8 S9
G1 X131.884 Y96.07 E.75982
G1 X131.348 Y96.07 E.0169
G1 X148.93 Y113.652 E.78372
G1 X148.93 Y113.93 E.00878
G1 X148.672 Y113.93 E.00812
G1 X130.812 Y96.07 E.79613
G1 X130.276 Y96.07 E.0169
G1 X148.136 Y113.93 E.79613
G1 X147.6 Y113.93 E.0169
G1 X129.74 Y96.07 E.79613
G1 X129.204 Y96.07 E.0169
M73 P9 R9
M73 Q9 S9
G1 X147.064 Y113.93 E.79613
G1 X146.528 Y113.93 E.0169
G1 X128.668 Y96.07 E.79613
G1 X128.132 Y96.07 E.0169
G1 X145.992 Y113.93 E.79613
G1 X145.456 Y113.93 E.0169
G1 X127.596 Y96.07 E.79613
G1 X127.06 Y96.07 E.0169
G1 X144.92 Y113.93 E.79613
G1 X144.384 Y113.93 E.0169
M73 P10 R9
M73 Q10 S9
G1 X126.524 Y96.07 E.79613
G1 X125.987 Y96.07 E.0169
G1 X143.848 Y113.93 E.79613
G1 X143.312 Y113.93 E.0169
G1 X125.451 Y96.07 E.79613
G1 X124.915 Y96.07 E.0169
G1 X142.776 Y113.93 E.79613
G1 X142.239 Y113.93 E.0169
G1 X124.379 Y96.07 E.79613
G1 X123.843 Y96.07 E.0169
M73 P11 R9
M73 Q11 S9
G1 X141.703 Y113.93 E.79613
G1 X141.167 Y113.93 E.0169
G1 X123.307 Y96.07 E.79613
G1 X122.771 Y96.07 E.0169
G1 X140.631 Y113.93 E.79613
G1 X140.095 Y113.93 E.0169
G1 X122.235 Y96.07 E.79613
G1 X121.699 Y96.07 E.0169
G1 X139.559 Y113.93 E.79613
G1 X139.023 Y113.93 E.0169
M73 P12 R9
M73 Q12 S9
G1 X121.163 Y96.07 E.79613
G1 X120.627 Y96.07 E.0169
G1 X138.487 Y113.93 E.79613
G1 X137.951 Y113.93 E.0169
G1 X120.091 Y96.07 E.79613
G1 X119.554 Y96.07 E.0169
G1 X125.779 Y102.294 E.27746
G1 X126.268 Y102.485 E.01654
G1 X126.444 Y102.582 E.00635
G1 X126.933 Y102.945 E.01918
G1 X127.322 Y103.407 E.01903
G1 X127.43 Y103.577 E.00636
G1 X127.684 Y104.133 E.01925
G1 X127.7 Y104.216 E.00266
G1 X137.415 Y113.93 E.43302
G1 X136.879 Y113.93 E.0169
G1 X127.811 Y104.863 E.40417
G1 X127.786 Y105.374 E.01612
M73 P13 R9
M73 Q13 S9
G1 X136.343 Y113.93 E.38141
G1 X135.806 Y113.93 E.0169
G1 X127.685 Y105.808 E.36203
G1 X127.548 Y106.208 E.0133
G1 X135.27 Y113.93 E.34423
G1 X134.734 Y113.93 E.0169
G1 X127.34 Y106.536 E.3296
G1 X127.176 Y106.796 E.00968
G1 X127.119 Y106.85 E.0025
G1 X134.198 Y113.93 E.31558
G1 X133.662 Y113.93 E.0169
G1 X126.845 Y107.113 E.30388
G1 X126.736 Y107.217 E.00476
G1 X126.546 Y107.351 E.0073
G1 X133.126 Y113.93 E.29329
G1 X132.59 Y113.93 E.0169
G1 X126.2 Y107.541 E.28481
G1 X125.943 Y107.654 E.00887
G1 X125.811 Y107.687 E.00428
G1 X132.054 Y113.93 E.27827
G1 X131.518 Y113.93 E.0169
G1 X125.377 Y107.789 E.27374
G1 X124.856 Y107.805 E.01641
G1 X131.151 Y114.1 E.28061
M204 S1000
;WIPE_START
G1 F8640
M73 Q14 S9
G1 X128.824 Y111.772 E-.76
;WIPE_END
G1 E-.04 F2100
M73 P14 R9
G1 Z.6 F720
G1 X118.849 Y95.9 F10800
G1 Z.2 F720
G1 E.8 F2100
M204 S800
G1 F1200
G1 X125.142 Y102.194 E.28055
G1 X124.879 Y102.187 E.0083
G1 X124.632 Y102.219 E.00787
G1 X118.482 Y96.07 E.27411
G1 X117.946 Y96.07 E.0169
G1 X124.192 Y102.316 E.27841
G1 X123.8 Y102.46 E.01316
G1 X117.41 Y96.07 E.28485
G1 X116.874 Y96.07 E.0169
G1 X123.458 Y102.654 E.29347
G1 X123.147 Y102.879 E.0121
G1 X116.338 Y96.07 E.30353
G1 X115.802 Y96.07 E.0169
G1 X122.889 Y103.157 E.31589
G1 X122.65 Y103.454 E.01202
G1 X115.266 Y96.07 E.32917
G1 X114.73 Y96.07 E.0169
G1 X122.467 Y103.807 E.34491
G1 X122.306 Y104.182 E.01286
G1 X114.194 Y96.07 E.36162
G1 X113.658 Y96.07 E.0169
G1 X122.219 Y104.632 E.38165
G1 X122.186 Y104.807 E.00562
M73 Q15 S9
G1 X122.203 Y105.151 E.01087
G1 X113.121 Y96.07 E.40481
G1 X112.585 Y96.07 E.0169
M73 P15 R9
G1 X122.309 Y105.793 E.43342
G1 X122.411 Y106.107 E.01042
G1 X122.496 Y106.29 E.00635
G1 X122.825 Y106.796 E.01902
G1 X123.264 Y107.218 E.0192
G1 X123.427 Y107.336 E.00635
G1 X123.871 Y107.58 E.01595
G1 X124.208 Y107.692 E.01121
G1 X130.446 Y113.93 E.27805
G1 X129.91 Y113.93 E.0169
G1 X112.049 Y96.07 E.79613
G1 X111.513 Y96.07 E.0169
G1 X129.373 Y113.93 E.79613
G1 X128.837 Y113.93 E.0169
G1 X110.977 Y96.07 E.79613
G1 X110.441 Y96.07 E.0169
M73 P15 R8
G1 X128.301 Y113.93 E.79613
G1 X127.765 Y113.93 E.0169
M73 P16 R8
M73 Q16 S9
G1 X109.905 Y96.07 E.79613
G1 X109.369 Y96.07 E.0169
M73 Q16 S8
G1 X127.229 Y113.93 E.79613
G1 X126.693 Y113.93 E.0169
G1 X108.833 Y96.07 E.79613
G1 X108.297 Y96.07 E.0169
G1 X126.157 Y113.93 E.79613
G1 X125.621 Y113.93 E.0169
G1 X107.761 Y96.07 E.79613
G1 X107.224 Y96.07 E.0169
M73 P17 R8
M73 Q17 S8
G1 X125.085 Y113.93 E.79613
G1 X124.549 Y113.93 E.0169
G1 X106.688 Y96.07 E.79613
G1 X106.152 Y96.07 E.0169
G1 X124.013 Y113.93 E.79613
G1 X123.476 Y113.93 E.0169
G1 X105.616 Y96.07 E.79613
G1 X105.08 Y96.07 E.0169
G1 X122.94 Y113.93 E.79613
G1 X122.404 Y113.93 E.0169
M73 P18 R8
M73 Q18 S8
G1 X104.544 Y96.07 E.79613
G1 X104.008 Y96.07 E.0169
G1 X121.868 Y113.93 E.79613
G1 X121.332 Y113.93 E.0169
G1 X103.472 Y96.07 E.79613
G1 X102.936 Y96.07 E.0169
G1 X120.796 Y113.93 E.79613
G1 X120.26 Y113.93 E.0169
G1 X102.4 Y96.07 E.79613
G1 X101.864 Y96.07 E.0169
M73 P19 R8
M73 Q19 S8
G1 X119.724 Y113.93 E.79613
G1 X119.188 Y113.93 E.0169
G1 X101.328 Y96.07 E.79613
G1 X101.07 Y96.07 E.00812
G1 X101.07 Y96.348 E.00877
G1 X118.652 Y113.93 E.78372
G1 X118.116 Y113.93 E.0169
G1 X101.07 Y96.884 E.75983
G1 X101.07 Y97.42 E.0169
G1 X117.58 Y113.93 E.73593
G1 X117.043 Y113.93 E.0169
M73 P20 R8
M73 Q20 S8
G1 X101.07 Y97.957 E.71203
G1 X101.07 Y98.493 E.0169
G1 X116.507 Y113.93 E.68814
G1 X115.971 Y113.93 E.0169
G1 X101.07 Y99.029 E.66424
G1 X101.07 Y99.565 E.0169
G1 X115.435 Y113.93 E.64034
G1 X114.899 Y113.93 E.0169
G1 X101.07 Y100.101 E.61645
G1 X101.07 Y100.637 E.0169
M73 P21 R8
G1 X114.363 Y113.93 E.59255
G1 X113.827 Y113.93 E.0169
M73 Q21 S8
G1 X101.07 Y101.173 E.56866
G1 X101.07 Y101.709 E.0169
G1 X113.291 Y113.93 E.54476
G1 X112.755 Y113.93 E.0169
G1 X101.07 Y102.245 E.52086
G1 X101.07 Y102.781 E.0169
G1 X112.219 Y113.93 E.49697
G1 X111.683 Y113.93 E.0169
G1 X101.07 Y103.317 E.47307
G1 X101.07 Y103.853 E.0169
G1 X111.147 Y113.93 E.44917
G1 X110.61 Y113.93 E.0169
G1 X101.07 Y104.39 E.42528
G1 X101.07 Y104.926 E.0169
M73 P22 R8
M73 Q22 S8
G1 X110.074 Y113.93 E.40138
G1 X109.538 Y113.93 E.0169
G1 X101.07 Y105.462 E.37748
G1 X101.07 Y105.998 E.0169
G1 X109.002 Y113.93 E.35359
G1 X108.466 Y113.93 E.0169
G1 X101.07 Y106.534 E.32969
G1 X101.07 Y107.07 E.0169
G1 X107.93 Y113.93 E.3058
G1 X107.394 Y113.93 E.0169
G1 X101.07 Y107.606 E.2819
G1 X101.07 Y108.142 E.0169
G1 X106.858 Y113.93 E.258
G1 X106.322 Y113.93 E.0169
G1 X101.07 Y108.678 E.23411
G1 X101.07 Y109.214 E.0169
G1 X105.786 Y113.93 E.21021
G1 X105.25 Y113.93 E.0169
G1 X101.07 Y109.75 E.18631
G1 X101.07 Y110.286 E.0169
G1 X104.714 Y113.93 E.16242
G1 X104.177 Y113.93 E.0169
G1 X101.07 Y110.823 E.13852
G1 X101.07 Y111.359 E.0169
G1 X103.641 Y113.93 E.11463
G1 X103.105 Y113.93 E.0169
G1 X101.07 Y111.895 E.09073
G1 X101.07 Y112.431 E.0169
M73 P23 R8
G1 X102.569 Y113.93 E.06683
G1 X102.033 Y113.93 E.0169
M73 Q23 S8
G1 X101.07 Y112.967 E.04294
G1 X101.07 Y113.503 E.0169
G1 X101.667 Y114.1 E.0266
M204 S1000
; stop printing object plate-spacer.STL id:0 copy 0
M106 S84.15
;LAYER_CHANGE
;Z:0.5
;HEIGHT:0.3
;BEFORE_LAYER_CHANGE
G92 E0.0
;0.5


;WIPE_START
G1 F8640
G1 X101.07 Y113.503 E-.19489
G1 X101.07 Y112.967 E-.12378
G1 X102.033 Y113.93 E-.31454
G1 X102.569 Y113.93 E-.12378
G1 X102.56 Y113.921 E-.003
;WIPE_END
G1 E-.04 F2100
G1 Z.6 F720
;AFTER_LAYER_CHANGE
;0.5
M104 S210 ; set temperature
G1 X102.56 Y117.377 F10800
G1 Z.5 F720
G1 E.8 F2100
;TYPE:Skirt/Brim
;WIDTH:0.42
G1 F2700
G1 X100 Y117.377 E.11355
G1 X98.693 Y116.985 E.06052
G1 X97.817 Y115.94 E.06052
G1 X97.623 Y115 E.04256
G1 X97.623 Y95 E.8871
G1 X98.015 Y93.693 E.06052
G1 X99.06 Y92.817 E.06052
G1 X100 Y92.623 E.04256
G1 X150 Y92.623 E2.21774
G1 X151.307 Y93.015 E.06052
G1 X152.183 Y94.06 E.06052
G1 X152.377 Y95 E.04256
G1 X152.377 Y115 E.8871
G1 X151.985 Y116.307 E.06052
G1 X150.94 Y117.183 E.06052
G1 X150 Y117.377 E.04256
G1 X102.62 Y117.377 E2.10153
; printing object plate-spacer.STL id:0 copy 0
;WIPE_START
G1 F8640
G1 X100 Y117.377 E-.60497
G1 X99.357 Y117.184 E-.15503
;WIPE_END
G1 E-.04 F2100
G1 Z.9 F720
G1 X149.214 Y114.214 F10800
G1 Z.5 F720
G1 E.8 F2100
M204 S800
;TYPE:Perimeter
;WIDTH:0.5
G1 F3000
G1 X100.786 Y114.214 E2.63127
G1 X100.786 Y95.786 E1.00129
G1 X149.214 Y95.786 E2.63127
M73 P24 R8
M73 Q24 S8
G1 X149.214 Y114.154 E.99803
M204 S1000
G1 X149.7 Y114.7 F10800
M204 S800
;TYPE:External perimeter
;WIDTH:0.6
G1 F2100
G1 X100.3 Y114.7 E3.30018
G1 X100.3 Y95.3 E1.29602
G1 X149.7 Y95.3 E3.30018
G1 X149.7 Y114.64 E1.29202
M204 S1000
G1 X149.303 Y114.65 F10800
;WIPE_START
G1 F8640
G1 X146.409 Y114.644 E-.76
;WIPE_END
G1 E-.04 F2100
G1 Z.9 F720
G1 X124.616 Y107.487 F10800
G1 Z.5 F720
G1 E.8 F2100
M204 S800
;TYPE:Perimeter
;WIDTH:0.5
G1 F1800
G1 X124.157 Y107.387 E.02553
G1 X123.608 Y107.114 E.03331
G1 X123.115 Y106.689 E.03531
G1 X122.751 Y106.163 E.03479
G1 X122.533 Y105.567 E.03448
M73 P25 R8
G1 X122.469 Y104.935 E.03448
G1 X122.565 Y104.308 E.03447
G1 X122.813 Y103.724 E.03449
M73 Q25 S8
G1 X123.199 Y103.221 E.03448
G1 X123.699 Y102.829 E.03448
G1 X124.279 Y102.573 E.03448
G1 X124.884 Y102.472 E.03331
G1 X125.532 Y102.526 E.03531
G1 X126.136 Y102.738 E.03479
G1 X126.663 Y103.091 E.03448
G1 X127.085 Y103.565 E.03448
G1 X127.377 Y104.128 E.03448
G1 X127.519 Y104.747 E.03448
G1 X127.532 Y104.897 E.00816
G1 X127.5 Y105.417 E.02835
G1 X127.331 Y105.986 E.03223
G1 X127.009 Y106.54 E.03479
G1 X126.564 Y106.991 E.03447
G1 X126.019 Y107.317 E.03449
G1 X125.411 Y107.498 E.03448
G1 X124.777 Y107.522 E.03448
