; generated by PrusaSlicer 2.5.0+win64 on 2023-01-04 at 16:9:50 UTC 




M73 P0 R0.45 
M73 Q0 S0.45 
M201 X1000 Y1000 Z200 E5000 ; sets maximum accelerations, mm/sec^2 
M203 X200 Y200 Z12 E120 ; sets maximum feedrates, mm / sec
M204 P1250 R1250 T1250 ; sets acceleration (P, T) and retract acceleration (R), mm/sec^2 
M205 X8.00 Y8.00 Z0.40 E4.50 ; sets the jerk limits, mm/sec
M205 S0 T0 ; sets the minimum extruding and travel feed rate, mm/sec 
M107
;TYPE:Custom
M862.3 P "MK3S" ; printer model check
M862.1 P0.4 ; nozzle diameter check
M115 U3.11.0 ; tell printer latest fw version
G90 ; use absolute coordinates
M83 ; extruder relative mode
M104 S230 ; set extruder temp
M140 S0 ; set bed temp
M109 S230 ; wait for extruder temp
G28 W ; home all without mesh bed level
G80 ; mesh bed leveling

G1 Z0.2 F720 
G1 Y-3 F1000 ; go outside print area 
G92 E0 
G1 X60 E9 F1000 ; intro line 
G1 X100 E9 F1000 ; intro line

G92 E0 
M221 S95

; Don't change E values below. Excessive value can damage the printer.

M907 E538 ; set extruder motor current
G21 ; set units to millimeters
G90 ; use absolute coordinates
M83 ; use relative distances for extrusion
M900 K0 ; Filament gcode LA 1.5
M107
;LAYER_CHANGE
;Z:0.2
;HEIGHT:0.2
;BEFORE_LAYER_CHANGE
G92 E0.0
;0.2


G0 Z0.2 F720 ; Move to z height
G1 E-0.8 F1800 ; Retract
G1 Z0.4 F720 ; Z hop
G0 X10.0 Y0.4356 F4800 ; Moving to line position
G1 Z0.2 F720 ; Z hop return
G1 E0.8 F1800 ; Un-retract
M204 S800
; printing line start id:0 copy 0 
G1 X10.0 Y150.0 E9.32725 F2400 ; Create Line 
; stop printing line id:0 copy 0


G1 Z9 F720 ; Move print head up 
G1 X0 Y200 F3600 ; park 
G1 Z57 F720 ; Move print head further up 
G4 ; wait 
M221 S100 ; reset flow

M104 S0 ; turn off temperature
M140 S0 ; turn off heatbed
M107 ; turn off fan 
M84 ; disable motors 
M73 P100 R0 
M73 Q100 S0

