; generated by PrusaSlicer 2.5.0+win64 on 2023-01-11 at 10:25:12 UTC 




M73 P0 R0.45 
M73 Q0 S0.45 
M201 X1000 Y1000 Z200 E5000 ; sets maximum accelerations, mm/sec^2 
M203 X200 Y200 Z12 E120 ; sets maximum feedrates, mm / sec
M204 P1250 R1250 T1250 ; sets acceleration (P, T) and retract acceleration (R), mm/sec^2 
M205 X8.00 Y8.00 Z0.40 E4.50 ; sets the jerk limits, mm/sec
M205 S0 T0 ; sets the minimum extruding and travel feed rate, mm/sec 
M107
;TYPE:Custom
M862.3 P "MK3S" ; printer model check
M862.1 P0.4 ; nozzle diameter check
M115 U3.11.0 ; tell printer latest fw version
G90 ; use absolute coordinates
M83 ; extruder relative mode
M104 S230 ; set extruder temp
M140 S0 ; set bed temp
M109 S230 ; wait for extruder temp
G28 W ; home all without mesh bed level
G80 ; mesh bed leveling

G1 Z1.6 F720 
G1 Y180 F1000 
G92 E0 
G1 X40 E9 F1000 ; intro line 
G1 X60 E9 F1000 ; intro line

G92 E0 
M221 S95

; Don't change E values below. Excessive value can damage the printer.

M907 E538 ; set extruder motor current
G21 ; set units to millimeters
G90 ; use absolute coordinates
M83 ; use relative distances for extrusion
M900 K0 ; Filament gcode LA 1.5
M107
;LAYER_CHANGE
;Z:0.2
;HEIGHT:0.2
;BEFORE_LAYER_CHANGE
G92 E0.0
;0.2


G0 Z0.2 F720 ; Move to z height
G0 X0.0 Y0.0 F4800 ; Moving to plane position
M204 S800
; printing plane start id:0 copy 0 
G1 E-1.5 F1800 ; Retract
G1 Z0.4 F720 ; Z hop
G0 X10.0 Y50.0 F4800 ; Move to box start
G1 Z0.2 F720 ; Z hop return
G1 E1.5 F1800 ; Un-retract
G1 X10.0 Y80.0 E1.87088 F2400 ; Draw perimeter (up)
G1 X40.0 Y80.0 E1.87088 F2400 ; Draw perimeter (right)
G1 X40.0 Y50.0 E1.87088 F2400 ; Draw perimeter (down)
G1 X10.0 Y50.0 E1.87088 F2400 ; Draw perimeter (down)
G0 X10.4356 Y50.4356 F4800 ; Step inwards to print next perimeter
G1 X10.4356 Y79.5644 E1.81655 F2400 ; Draw perimeter (up)
G1 X39.5644 Y79.5644 E1.81655 F2400 ; Draw perimeter (right)
G1 X39.5644 Y50.4356 E1.81655 F2400 ; Draw perimeter (down)
G1 X10.4356 Y50.4356 E1.81655 F2400 ; Draw perimeter (down)
G0 X10.8712 Y50.8712 F4800 ; Step inwards to print next perimeter
G1 X10.8712 Y79.1288 E1.76222 F2400 ; Draw perimeter (up)
G1 X39.1288 Y79.1288 E1.76222 F2400 ; Draw perimeter (right)
G1 X39.1288 Y50.8712 E1.76222 F2400 ; Draw perimeter (down)
G1 X10.8712 Y50.8712 E1.76222 F2400 ; Draw perimeter (down)
G0 X11.3069 Y51.3069 F4800 ; Step inwards to print next perimeter
G1 X11.3069 Y78.6931 E1.70788 F2400 ; Draw perimeter (up)
G1 X38.6931 Y78.6931 E1.70788 F2400 ; Draw perimeter (right)
G1 X38.6931 Y51.3069 E1.70788 F2400 ; Draw perimeter (down)
G1 X11.3069 Y51.3069 E1.70788 F2400 ; Draw perimeter (down)
G0 X11.4158 Y51.4158 F4800 ; Move to fill start
G0 X12.0318 Y51.4158 F4800 ; Move
G1 X11.4158 Y52.0318 E0.05433 F2400 ; Fill
G0 X11.4158 Y52.6479 F4800 ; Move
G1 X12.6479 Y51.4158 E0.10867 F2400 ; Fill
G0 X13.2639 Y51.4158 F4800 ; Move
G1 X11.4158 Y53.2639 E0.163 F2400 ; Fill
G0 X11.4158 Y53.88 F4800 ; Move
G1 X13.88 Y51.4158 E0.21733 F2400 ; Fill
G0 X14.4961 Y51.4158 F4800 ; Move
G1 X11.4158 Y54.4961 E0.27166 F2400 ; Fill
G0 X11.4158 Y55.1121 F4800 ; Move
G1 X15.1121 Y51.4158 E0.326 F2400 ; Fill
G0 X15.7282 Y51.4158 F4800 ; Move
G1 X11.4158 Y55.7282 E0.38033 F2400 ; Fill
G0 X11.4158 Y56.3442 F4800 ; Move
G1 X16.3442 Y51.4158 E0.43466 F2400 ; Fill
G0 X16.9603 Y51.4158 F4800 ; Move
G1 X11.4158 Y56.9603 E0.489 F2400 ; Fill
G0 X11.4158 Y57.5764 F4800 ; Move
G1 X17.5764 Y51.4158 E0.54333 F2400 ; Fill
G0 X18.1924 Y51.4158 F4800 ; Move
G1 X11.4158 Y58.1924 E0.59766 F2400 ; Fill
G0 X11.4158 Y58.8085 F4800 ; Move
G1 X18.8085 Y51.4158 E0.65199 F2400 ; Fill
G0 X19.4245 Y51.4158 F4800 ; Move
G1 X11.4158 Y59.4245 E0.70633 F2400 ; Fill
G0 X11.4158 Y60.0406 F4800 ; Move
G1 X20.0406 Y51.4158 E0.76066 F2400 ; Fill
G0 X20.6566 Y51.4158 F4800 ; Move
G1 X11.4158 Y60.6566 E0.81499 F2400 ; Fill
G0 X11.4158 Y61.2727 F4800 ; Move
G1 X21.2727 Y51.4158 E0.86933 F2400 ; Fill
G0 X21.8888 Y51.4158 F4800 ; Move
G1 X11.4158 Y61.8888 E0.92366 F2400 ; Fill
G0 X11.4158 Y62.5048 F4800 ; Move
G1 X22.5048 Y51.4158 E0.97799 F2400 ; Fill
G0 X23.1209 Y51.4158 F4800 ; Move
G1 X11.4158 Y63.1209 E1.03232 F2400 ; Fill
G0 X11.4158 Y63.7369 F4800 ; Move
G1 X23.7369 Y51.4158 E1.08666 F2400 ; Fill
G0 X24.353 Y51.4158 F4800 ; Move
G1 X11.4158 Y64.353 E1.14099 F2400 ; Fill
G0 X11.4158 Y64.9691 F4800 ; Move
G1 X24.9691 Y51.4158 E1.19532 F2400 ; Fill
G0 X25.5851 Y51.4158 F4800 ; Move
G1 X11.4158 Y65.5851 E1.24966 F2400 ; Fill
G0 X11.4158 Y66.2012 F4800 ; Move
G1 X26.2012 Y51.4158 E1.30399 F2400 ; Fill
G0 X26.8172 Y51.4158 F4800 ; Move
G1 X11.4158 Y66.8172 E1.35832 F2400 ; Fill
G0 X11.4158 Y67.4333 F4800 ; Move
G1 X27.4333 Y51.4158 E1.41265 F2400 ; Fill
G0 X28.0494 Y51.4158 F4800 ; Move
G1 X11.4158 Y68.0494 E1.46699 F2400 ; Fill
G0 X11.4158 Y68.6654 F4800 ; Move
G1 X28.6654 Y51.4158 E1.52132 F2400 ; Fill
G0 X29.2815 Y51.4158 F4800 ; Move
G1 X11.4158 Y69.2815 E1.57565 F2400 ; Fill
G0 X11.4158 Y69.8975 F4800 ; Move
G1 X29.8975 Y51.4158 E1.62999 F2400 ; Fill
G0 X30.5136 Y51.4158 F4800 ; Move
G1 X11.4158 Y70.5136 E1.68432 F2400 ; Fill
G0 X11.4158 Y71.1296 F4800 ; Move
G1 X31.1296 Y51.4158 E1.73865 F2400 ; Fill
G0 X31.7457 Y51.4158 F4800 ; Move
G1 X11.4158 Y71.7457 E1.79298 F2400 ; Fill
G0 X11.4158 Y72.3618 F4800 ; Move
G1 X32.3618 Y51.4158 E1.84732 F2400 ; Fill
G0 X32.9778 Y51.4158 F4800 ; Move
G1 X11.4158 Y72.9778 E1.90165 F2400 ; Fill
G0 X11.4158 Y73.5939 F4800 ; Move
G1 X33.5939 Y51.4158 E1.95598 F2400 ; Fill
G0 X34.2099 Y51.4158 F4800 ; Move
G1 X11.4158 Y74.2099 E2.01032 F2400 ; Fill
G0 X11.4158 Y74.826 F4800 ; Move
G1 X34.826 Y51.4158 E2.06465 F2400 ; Fill
G0 X35.4421 Y51.4158 F4800 ; Move
G1 X11.4158 Y75.4421 E2.11898 F2400 ; Fill
G0 X11.4158 Y76.0581 F4800 ; Move
G1 X36.0581 Y51.4158 E2.17331 F2400 ; Fill
G0 X36.6742 Y51.4158 F4800 ; Move
G1 X11.4158 Y76.6742 E2.22765 F2400 ; Fill
G0 X11.4158 Y77.2902 F4800 ; Move
G1 X37.2902 Y51.4158 E2.28198 F2400 ; Fill
G0 X37.9063 Y51.4158 F4800 ; Move
G1 X11.4158 Y77.9063 E2.33631 F2400 ; Fill
G0 X11.4158 Y78.5224 F4800 ; Move
G1 X38.5224 Y51.4158 E2.39065 F2400 ; Fill
G0 X38.5842 Y51.9699 F4800 ; Move
G1 X11.9699 Y78.5842 E2.34723 F2400 ; Fill
G0 X12.586 Y78.5842 F4800 ; Move
G1 X38.5842 Y52.586 E2.29289 F2400 ; Fill
G0 X38.5842 Y53.2021 F4800 ; Move
G1 X13.2021 Y78.5842 E2.23856 F2400 ; Fill
G0 X13.8181 Y78.5842 F4800 ; Move
G1 X38.5842 Y53.8181 E2.18423 F2400 ; Fill
G0 X38.5842 Y54.4342 F4800 ; Move
G1 X14.4342 Y78.5842 E2.1299 F2400 ; Fill
G0 X15.0502 Y78.5842 F4800 ; Move
G1 X38.5842 Y55.0502 E2.07556 F2400 ; Fill
G0 X38.5842 Y55.6663 F4800 ; Move
G1 X15.6663 Y78.5842 E2.02123 F2400 ; Fill
G0 X16.2824 Y78.5842 F4800 ; Move
G1 X38.5842 Y56.2824 E1.9669 F2400 ; Fill
G0 X38.5842 Y56.8984 F4800 ; Move
G1 X16.8984 Y78.5842 E1.91256 F2400 ; Fill
G0 X17.5145 Y78.5842 F4800 ; Move
G1 X38.5842 Y57.5145 E1.85823 F2400 ; Fill
G0 X38.5842 Y58.1305 F4800 ; Move
G1 X18.1305 Y78.5842 E1.8039 F2400 ; Fill
G0 X18.7466 Y78.5842 F4800 ; Move
G1 X38.5842 Y58.7466 E1.74957 F2400 ; Fill
G0 X38.5842 Y59.3626 F4800 ; Move
G1 X19.3626 Y78.5842 E1.69523 F2400 ; Fill
G0 X19.9787 Y78.5842 F4800 ; Move
G1 X38.5842 Y59.9787 E1.6409 F2400 ; Fill
G0 X38.5842 Y60.5948 F4800 ; Move
G1 X20.5948 Y78.5842 E1.58657 F2400 ; Fill
G0 X21.2108 Y78.5842 F4800 ; Move
G1 X38.5842 Y61.2108 E1.53223 F2400 ; Fill
G0 X38.5842 Y61.8269 F4800 ; Move
G1 X21.8269 Y78.5842 E1.4779 F2400 ; Fill
G0 X22.4429 Y78.5842 F4800 ; Move
G1 X38.5842 Y62.4429 E1.42357 F2400 ; Fill
G0 X38.5842 Y63.059 F4800 ; Move
G1 X23.059 Y78.5842 E1.36924 F2400 ; Fill
G0 X23.6751 Y78.5842 F4800 ; Move
G1 X38.5842 Y63.6751 E1.3149 F2400 ; Fill
G0 X38.5842 Y64.2911 F4800 ; Move
G1 X24.2911 Y78.5842 E1.26057 F2400 ; Fill
G0 X24.9072 Y78.5842 F4800 ; Move
G1 X38.5842 Y64.9072 E1.20624 F2400 ; Fill
G0 X38.5842 Y65.5232 F4800 ; Move
G1 X25.5232 Y78.5842 E1.1519 F2400 ; Fill
G0 X26.1393 Y78.5842 F4800 ; Move
G1 X38.5842 Y66.1393 E1.09757 F2400 ; Fill
G0 X38.5842 Y66.7554 F4800 ; Move
G1 X26.7554 Y78.5842 E1.04324 F2400 ; Fill
G0 X27.3714 Y78.5842 F4800 ; Move
G1 X38.5842 Y67.3714 E0.98891 F2400 ; Fill
G0 X38.5842 Y67.9875 F4800 ; Move
G1 X27.9875 Y78.5842 E0.93457 F2400 ; Fill
G0 X28.6035 Y78.5842 F4800 ; Move
G1 X38.5842 Y68.6035 E0.88024 F2400 ; Fill
G0 X38.5842 Y69.2196 F4800 ; Move
G1 X29.2196 Y78.5842 E0.82591 F2400 ; Fill
G0 X29.8357 Y78.5842 F4800 ; Move
G1 X38.5842 Y69.8357 E0.77158 F2400 ; Fill
G0 X38.5842 Y70.4517 F4800 ; Move
G1 X30.4517 Y78.5842 E0.71724 F2400 ; Fill
G0 X31.0678 Y78.5842 F4800 ; Move
G1 X38.5842 Y71.0678 E0.66291 F2400 ; Fill
G0 X38.5842 Y71.6838 F4800 ; Move
G1 X31.6838 Y78.5842 E0.60858 F2400 ; Fill
G0 X32.2999 Y78.5842 F4800 ; Move
G1 X38.5842 Y72.2999 E0.55424 F2400 ; Fill
G0 X38.5842 Y72.9159 F4800 ; Move
G1 X32.9159 Y78.5842 E0.49991 F2400 ; Fill
G0 X33.532 Y78.5842 F4800 ; Move
G1 X38.5842 Y73.532 E0.44558 F2400 ; Fill
G0 X38.5842 Y74.1481 F4800 ; Move
G1 X34.1481 Y78.5842 E0.39125 F2400 ; Fill
G0 X34.7641 Y78.5842 F4800 ; Move
G1 X38.5842 Y74.7641 E0.33691 F2400 ; Fill
G0 X38.5842 Y75.3802 F4800 ; Move
G1 X35.3802 Y78.5842 E0.28258 F2400 ; Fill
G0 X35.9962 Y78.5842 F4800 ; Move
G1 X38.5842 Y75.9962 E0.22825 F2400 ; Fill
G0 X38.5842 Y76.6123 F4800 ; Move
G1 X36.6123 Y78.5842 E0.17391 F2400 ; Fill
G0 X37.2284 Y78.5842 F4800 ; Move
G1 X38.5842 Y77.2284 E0.11958 F2400 ; Fill
G0 X38.5842 Y77.8444 F4800 ; Move
G1 X37.8444 Y78.5842 E0.06525 F2400 ; Fill
G0 X38.4605 Y78.5842 F4800 ; Move
G1 X38.5842 Y78.4605 E0.01092 F2400 ; Fill
; stop printing plane id:0 copy 0
G1 Z9 F720 ; Move print head up 
G1 X100 Y200 F3600 ; park 
G1 Z57 F720 ; Move print head further up 
G4 ; wait 
M221 S100 ; reset flow

M104 S0 ; turn off temperature
M140 S0 ; turn off heatbed
M107 ; turn off fan 
M84 ; disable motors 
M73 P100 R0 
M73 Q100 S0

; filament used [mm] = 30
; filament used [cm3] = 0.05
; filament used [g] = 0.08
; filament cost = 0.01
; total filament used [g] = 0.08
; total filament cost = 0.01
; estimated printing time (normal mode) = 00m 17s
; estimated printing time (silent mode) = 00m 17s

; prusaslicer_config = begin
; avoid_crossing_perimeters = 0
; avoid_crossing_perimeters_max_detour = 0
; bed_custom_model = 
; bed_custom_texture = 
; bed_shape = 0x0,250x0,250x210,0x210
; bed_temperature = 0
; before_layer_gcode = ;BEFORE_LAYER_CHANGE\nG92 E0.0\n;[layer_z]\n\n
; between_objects_gcode = 
; bottom_fill_pattern = monotonic
; bottom_solid_layers = 3
; bottom_solid_min_thickness = 0.5
; bridge_acceleration = 1000
; bridge_angle = 0
; bridge_fan_speed = 100
; bridge_flow_ratio = 0.95
; bridge_speed = 25
; brim_separation = 0.1
; brim_type = outer_only
; brim_width = 0
; clip_multipart_objects = 1
; color_change_gcode = M600\nG1 E0.4 F1500 ; prime after color change
; compatible_printers_condition_cummulative = "printer_notes=~/.*PRINTER_VENDOR_PRUSA3D.*/ and printer_notes=~/.*PRINTER_MODEL_MK3.*/ and nozzle_diameter[0]==0.4";"nozzle_diameter[0]!=0.8 and ! (printer_notes=~/.*PRINTER_VENDOR_PRUSA3D.*/ and printer_notes=~/.*PRINTER_MODEL_MK(2.5|3).*/ and single_extruder_multi_material)"
; complete_objects = 0
; cooling = 1
; cooling_tube_length = 5
; cooling_tube_retraction = 91.5
; default_acceleration = 1000
; default_filament_profile = "Prusament PLA"
; default_print_profile = 0.15mm QUALITY @MK3
; deretract_speed = 0
; disable_fan_first_layers = 1
; dont_support_bridges = 0
; draft_shield = disabled
; duplicate_distance = 6
; elefant_foot_compensation = 0.2
; end_filament_gcode = "; Filament-specific end gcode"
; end_gcode = {if max_layer_z < max_print_height}G1 Z{z_offset+min(max_layer_z+1, max_print_height)} F720 ; Move print head up{endif}\nG1 X0 Y200 F3600 ; park\n{if max_layer_z < max_print_height}G1 Z{z_offset+min(max_layer_z+49, max_print_height)} F720 ; Move print head further up{endif}\nG4 ; wait\nM221 S100 ; reset flow\nM900 K0 ; reset LA\n{if print_settings_id=~/.*(DETAIL @MK3|QUALITY @MK3|@0.25 nozzle MK3).*/}M907 E538 ; reset extruder motor current{endif}\nM104 S0 ; turn off temperature\nM140 S0 ; turn off heatbed\nM107 ; turn off fan\nM84 ; disable motors
; ensure_vertical_shell_thickness = 1
; external_perimeter_extrusion_width = 0.6
; external_perimeter_speed = 35
; external_perimeters_first = 0
; extra_loading_move = -2
; extra_perimeters = 0
; extruder_clearance_height = 20
; extruder_clearance_radius = 45
; extruder_colour = ""
; extruder_offset = 0x0
; extrusion_axis = E
; extrusion_multiplier = 1
; extrusion_width = 0.5
; fan_always_on = 1
; fan_below_layer_time = 100
; filament_colour = #FF8000
; filament_cooling_final_speed = 3.4
; filament_cooling_initial_speed = 2.2
; filament_cooling_moves = 4
; filament_cost = 25.4
; filament_density = 1.24
; filament_diameter = 1.75
; filament_load_time = 0
; filament_loading_speed = 28
; filament_loading_speed_start = 3
; filament_max_volumetric_speed = 15
; filament_minimal_purge_on_wipe_tower = 15
; filament_notes = ""
; filament_ramming_parameters = "120 100 6.6 6.8 7.2 7.6 7.9 8.2 8.7 9.4 9.9 10.0| 0.05 6.6 0.45 6.8 0.95 7.8 1.45 8.3 1.95 9.7 2.45 10 2.95 7.6 3.45 7.6 3.95 7.6 4.45 7.6 4.95 7.6"
; filament_settings_id = "Generic PLA"
; filament_soluble = 0
; filament_spool_weight = 0
; filament_toolchange_delay = 0
; filament_type = PLA
; filament_unload_time = 0
; filament_unloading_speed = 90
; filament_unloading_speed_start = 100
; filament_vendor = Generic
; fill_angle = 45
; fill_density = 20%
; fill_pattern = grid
; first_layer_acceleration = 800
; first_layer_acceleration_over_raft = 0
; first_layer_bed_temperature = 0
; first_layer_extrusion_width = 0.42
; first_layer_height = 0.2
; first_layer_speed = 20
; first_layer_speed_over_raft = 30
; first_layer_temperature = 230
; full_fan_speed_layer = 4
; fuzzy_skin = none
; fuzzy_skin_point_dist = 0.8
; fuzzy_skin_thickness = 0.3
; gap_fill_enabled = 1
; gap_fill_speed = 40
; gcode_comments = 0
; gcode_flavor = marlin
; gcode_label_objects = 1
; gcode_resolution = 0.0125
; gcode_substitutions = 
; high_current_on_filament_swap = 0
; host_type = octoprint
; infill_acceleration = 1000
; infill_anchor = 2.5
; infill_anchor_max = 12
; infill_every_layers = 1
; infill_extruder = 1
; infill_extrusion_width = 0.5
; infill_first = 0
; infill_only_where_needed = 0
; infill_overlap = 25%
; infill_speed = 85
; interface_shells = 0
; ironing = 0
; ironing_flowrate = 15%
; ironing_spacing = 0.1
; ironing_speed = 15
; ironing_type = top
; layer_gcode = ;AFTER_LAYER_CHANGE\n;[layer_z]
; layer_height = 0.3
; machine_limits_usage = emit_to_gcode
; machine_max_acceleration_e = 5000,5000
; machine_max_acceleration_extruding = 1250,1250
; machine_max_acceleration_retracting = 1250,1250
; machine_max_acceleration_travel = 1500,1250
; machine_max_acceleration_x = 1000,960
; machine_max_acceleration_y = 1000,960
; machine_max_acceleration_z = 200,200
; machine_max_feedrate_e = 120,120
; machine_max_feedrate_x = 200,100
; machine_max_feedrate_y = 200,100
; machine_max_feedrate_z = 12,12
; machine_max_jerk_e = 4.5,4.5
; machine_max_jerk_x = 8,8
; machine_max_jerk_y = 8,8
; machine_max_jerk_z = 0.4,0.4
; machine_min_extruding_rate = 0,0
; machine_min_travel_rate = 0,0
; max_fan_speed = 100
; max_layer_height = 0.25
; max_print_height = 210
; max_print_speed = 200
; max_volumetric_extrusion_rate_slope_negative = 0
; max_volumetric_extrusion_rate_slope_positive = 0
; max_volumetric_speed = 0
; min_bead_width = 85%
; min_fan_speed = 100
; min_feature_size = 25%
; min_layer_height = 0.07
; min_print_speed = 15
; min_skirt_length = 4
; mmu_segmented_region_max_width = 0
; notes = 
; nozzle_diameter = 0.4
; only_retract_when_crossing_perimeters = 0
; ooze_prevention = 0
; output_filename_format = {input_filename_base}_{layer_height}mm_{initial_filament_type}_{printer_model}_{print_time}.gcode
; overhangs = 1
; parking_pos_retraction = 92
; pause_print_gcode = M601
; perimeter_acceleration = 800
; perimeter_extruder = 1
; perimeter_extrusion_width = 0.5
; perimeter_generator = arachne
; perimeter_speed = 50
; perimeters = 2
; physical_printer_settings_id = 
; post_process = 
