; generated by PrusaSlicer 2.5.0+win64 on 2023-01-11 at 16:22:7 UTC 




M73 P0 R0.45 
M73 Q0 S0.45 
M201 X1000 Y1000 Z200 E5000 ; sets maximum accelerations, mm/sec^2 
M203 X200 Y200 Z12 E120 ; sets maximum feedrates, mm / sec
M204 P1250 R1250 T1250 ; sets acceleration (P, T) and retract acceleration (R), mm/sec^2 
M205 X8.00 Y8.00 Z0.40 E4.50 ; sets the jerk limits, mm/sec
M205 S0 T0 ; sets the minimum extruding and travel feed rate, mm/sec 
M107
;TYPE:Custom
M862.3 P "MK3S" ; printer model check
M862.1 P0.4 ; nozzle diameter check
M115 U3.11.0 ; tell printer latest fw version
G90 ; use absolute coordinates
M83 ; extruder relative mode
M104 S230 ; set extruder temp
M140 S0 ; set bed temp
M109 S230 ; wait for extruder temp
G28 W ; home all without mesh bed level
G80 ; mesh bed leveling

G1 Z1.6 F720 
G1 Y204 F1000 
G92 E0 
G1 X40 E9 F1000 ; intro line 
G1 X60 E9 F1000 ; intro line

G92 E0 
M221 S95

; Don't change E values below. Excessive value can damage the printer.

M907 E538 ; set extruder motor current
G21 ; set units to millimeters
G90 ; use absolute coordinates
M83 ; use relative distances for extrusion
M900 K0 ; Filament gcode LA 1.5
M107
;LAYER_CHANGE
;Z:0.2
;HEIGHT:0.2
;BEFORE_LAYER_CHANGE
G92 E0.0
;0.2


G0 Z0.2 F720 ; Move to z height
G0 X0.0 Y0.0 F4800 ; Moving to plane position
M204 S800
; printing plane start id:0 copy 0 
G0 Z0.2 F720 ; Move to z height
G1 E-1.5 F1800 ; Retract
G1 Z0.4 F720 ; Z hop
G0 X10.0 Y50.0 F4800 ; Move to box start
G1 Z0.2 F720 ; Z hop return
G1 E1.5 F1800 ; Un-retract
G1 X9.75 Y79.75 E1.2369 F2400 ; Draw perimeter (up)
G1 X39.75 Y79.75 E1.24726 F2400 ; Draw perimeter (right)
G1 X39.75 Y49.75 E1.24726 F2400 ; Draw perimeter (down)
G1 X9.75 Y49.75 E1.24726 F2400 ; Draw perimeter (down)
G0 X10.2071 Y50.2071 F4800 ; Step inwards to print next perimeter
G1 X10.2071 Y79.2929 E1.20925 F2400 ; Draw perimeter (up)
G1 X39.2929 Y79.2929 E1.20925 F2400 ; Draw perimeter (right)
G1 X39.2929 Y50.2071 E1.20925 F2400 ; Draw perimeter (down)
G1 X10.2071 Y50.2071 E1.20925 F2400 ; Draw perimeter (down)
G0 X10.6642 Y50.6642 F4800 ; Step inwards to print next perimeter
G1 X10.6642 Y78.8358 E1.17124 F2400 ; Draw perimeter (up)
G1 X38.8358 Y78.8358 E1.17124 F2400 ; Draw perimeter (right)
G1 X38.8358 Y50.6642 E1.17124 F2400 ; Draw perimeter (down)
G1 X10.6642 Y50.6642 E1.17124 F2400 ; Draw perimeter (down)
G0 X11.1212 Y51.1212 F4800 ; Step inwards to print next perimeter
G1 X11.1212 Y78.3788 E1.13324 F2400 ; Draw perimeter (up)
G1 X38.3788 Y78.3788 E1.13324 F2400 ; Draw perimeter (right)
G1 X38.3788 Y51.1212 E1.13324 F2400 ; Draw perimeter (down)
G1 X11.1212 Y51.1212 E1.13324 F2400 ; Draw perimeter (down)
G0 X11.4855 Y51.4855 F4800 ; Move to fill start
G0 X12.1319 Y51.4855 F4800 ; Move
G1 X11.4855 Y52.1319 E0.03801 F2400 ; Fill
G0 X11.4855 Y52.7783 F4800 ; Move
G1 X12.7783 Y51.4855 E0.07601 F2400 ; Fill
G0 X13.4247 Y51.4855 F4800 ; Move
G1 X11.4855 Y53.4247 E0.11402 F2400 ; Fill
G0 X11.4855 Y54.0711 F4800 ; Move
G1 X14.0711 Y51.4855 E0.15203 F2400 ; Fill
G0 X14.7175 Y51.4855 F4800 ; Move
G1 X11.4855 Y54.7175 E0.19003 F2400 ; Fill
G0 X11.4855 Y55.364 F4800 ; Move
G1 X15.364 Y51.4855 E0.22804 F2400 ; Fill
G0 X16.0104 Y51.4855 F4800 ; Move
G1 X11.4855 Y56.0104 E0.26604 F2400 ; Fill
G0 X11.4855 Y56.6568 F4800 ; Move
G1 X16.6568 Y51.4855 E0.30405 F2400 ; Fill
G0 X17.3032 Y51.4855 F4800 ; Move
G1 X11.4855 Y57.3032 E0.34206 F2400 ; Fill
G0 X11.4855 Y57.9496 F4800 ; Move
G1 X17.9496 Y51.4855 E0.38006 F2400 ; Fill
G0 X18.596 Y51.4855 F4800 ; Move
G1 X11.4855 Y58.596 E0.41807 F2400 ; Fill
G0 X11.4855 Y59.2424 F4800 ; Move
G1 X19.2424 Y51.4855 E0.45608 F2400 ; Fill
G0 X19.8888 Y51.4855 F4800 ; Move
G1 X11.4855 Y59.8888 E0.49408 F2400 ; Fill
G0 X11.4855 Y60.5352 F4800 ; Move
G1 X20.5352 Y51.4855 E0.53209 F2400 ; Fill
G0 X21.1816 Y51.4855 F4800 ; Move
G1 X11.4855 Y61.1816 E0.57009 F2400 ; Fill
G0 X11.4855 Y61.828 F4800 ; Move
G1 X21.828 Y51.4855 E0.6081 F2400 ; Fill
G0 X22.4744 Y51.4855 F4800 ; Move
G1 X11.4855 Y62.4744 E0.64611 F2400 ; Fill
G0 X11.4855 Y63.1209 F4800 ; Move
G1 X23.1209 Y51.4855 E0.68411 F2400 ; Fill
G0 X23.7673 Y51.4855 F4800 ; Move
G1 X11.4855 Y63.7673 E0.72212 F2400 ; Fill
G0 X11.4855 Y64.4137 F4800 ; Move
G1 X24.4137 Y51.4855 E0.76013 F2400 ; Fill
G0 X25.0601 Y51.4855 F4800 ; Move
G1 X11.4855 Y65.0601 E0.79813 F2400 ; Fill
G0 X11.4855 Y65.7065 F4800 ; Move
G1 X25.7065 Y51.4855 E0.83614 F2400 ; Fill
G0 X26.3529 Y51.4855 F4800 ; Move
G1 X11.4855 Y66.3529 E0.87415 F2400 ; Fill
G0 X11.4855 Y66.9993 F4800 ; Move
G1 X26.9993 Y51.4855 E0.91215 F2400 ; Fill
G0 X27.6457 Y51.4855 F4800 ; Move
G1 X11.4855 Y67.6457 E0.95016 F2400 ; Fill
G0 X11.4855 Y68.2921 F4800 ; Move
G1 X28.2921 Y51.4855 E0.98816 F2400 ; Fill
G0 X28.9385 Y51.4855 F4800 ; Move
G1 X11.4855 Y68.9385 E1.02617 F2400 ; Fill
G0 X11.4855 Y69.5849 F4800 ; Move
G1 X29.5849 Y51.4855 E1.06418 F2400 ; Fill
G0 X30.2313 Y51.4855 F4800 ; Move
G1 X11.4855 Y70.2313 E1.10218 F2400 ; Fill
G0 X11.4855 Y70.8778 F4800 ; Move
G1 X30.8778 Y51.4855 E1.14019 F2400 ; Fill
G0 X31.5242 Y51.4855 F4800 ; Move
G1 X11.4855 Y71.5242 E1.1782 F2400 ; Fill
G0 X11.4855 Y72.1706 F4800 ; Move
G1 X32.1706 Y51.4855 E1.2162 F2400 ; Fill
G0 X32.817 Y51.4855 F4800 ; Move
G1 X11.4855 Y72.817 E1.25421 F2400 ; Fill
G0 X11.4855 Y73.4634 F4800 ; Move
G1 X33.4634 Y51.4855 E1.29222 F2400 ; Fill
G0 X34.1098 Y51.4855 F4800 ; Move
G1 X11.4855 Y74.1098 E1.33022 F2400 ; Fill
G0 X11.4855 Y74.7562 F4800 ; Move
G1 X34.7562 Y51.4855 E1.36823 F2400 ; Fill
G0 X35.4026 Y51.4855 F4800 ; Move
G1 X11.4855 Y75.4026 E1.40623 F2400 ; Fill
G0 X11.4855 Y76.049 F4800 ; Move
G1 X36.049 Y51.4855 E1.44424 F2400 ; Fill
G0 X36.6954 Y51.4855 F4800 ; Move
G1 X11.4855 Y76.6954 E1.48225 F2400 ; Fill
G0 X11.4855 Y77.3418 F4800 ; Move
G1 X37.3418 Y51.4855 E1.52025 F2400 ; Fill
G0 X37.9882 Y51.4855 F4800 ; Move
G1 X11.4855 Y77.9882 E1.55826 F2400 ; Fill
G0 X11.8557 Y78.2645 F4800 ; Move
G1 X38.2645 Y51.8557 E1.55274 F2400 ; Fill
G0 X38.2645 Y52.5021 F4800 ; Move
G1 X12.5021 Y78.2645 E1.51473 F2400 ; Fill
G0 X13.1485 Y78.2645 F4800 ; Move
G1 X38.2645 Y53.1485 E1.47672 F2400 ; Fill
G0 X38.2645 Y53.7949 F4800 ; Move
G1 X13.7949 Y78.2645 E1.43872 F2400 ; Fill
G0 X14.4413 Y78.2645 F4800 ; Move
G1 X38.2645 Y54.4413 E1.40071 F2400 ; Fill
G0 X38.2645 Y55.0877 F4800 ; Move
G1 X15.0877 Y78.2645 E1.36271 F2400 ; Fill
G0 X15.7341 Y78.2645 F4800 ; Move
G1 X38.2645 Y55.7341 E1.3247 F2400 ; Fill
G0 X38.2645 Y56.3805 F4800 ; Move
G1 X16.3805 Y78.2645 E1.28669 F2400 ; Fill
G0 X17.0269 Y78.2645 F4800 ; Move
G1 X38.2645 Y57.0269 E1.24869 F2400 ; Fill
G0 X38.2645 Y57.6733 F4800 ; Move
G1 X17.6733 Y78.2645 E1.21068 F2400 ; Fill
G0 X18.3198 Y78.2645 F4800 ; Move
G1 X38.2645 Y58.3198 E1.17267 F2400 ; Fill
G0 X38.2645 Y58.9662 F4800 ; Move
G1 X18.9662 Y78.2645 E1.13467 F2400 ; Fill
G0 X19.6126 Y78.2645 F4800 ; Move
G1 X38.2645 Y59.6126 E1.09666 F2400 ; Fill
G0 X38.2645 Y60.259 F4800 ; Move
G1 X20.259 Y78.2645 E1.05866 F2400 ; Fill
G0 X20.9054 Y78.2645 F4800 ; Move
G1 X38.2645 Y60.9054 E1.02065 F2400 ; Fill
G0 X38.2645 Y61.5518 F4800 ; Move
G1 X21.5518 Y78.2645 E0.98264 F2400 ; Fill
G0 X22.1982 Y78.2645 F4800 ; Move
G1 X38.2645 Y62.1982 E0.94464 F2400 ; Fill
G0 X38.2645 Y62.8446 F4800 ; Move
G1 X22.8446 Y78.2645 E0.90663 F2400 ; Fill
G0 X23.491 Y78.2645 F4800 ; Move
G1 X38.2645 Y63.491 E0.86862 F2400 ; Fill
G0 X38.2645 Y64.1374 F4800 ; Move
G1 X24.1374 Y78.2645 E0.83062 F2400 ; Fill
G0 X24.7838 Y78.2645 F4800 ; Move
G1 X38.2645 Y64.7838 E0.79261 F2400 ; Fill
G0 X38.2645 Y65.4302 F4800 ; Move
G1 X25.4302 Y78.2645 E0.7546 F2400 ; Fill
G0 X26.0767 Y78.2645 F4800 ; Move
G1 X38.2645 Y66.0767 E0.7166 F2400 ; Fill
G0 X38.2645 Y66.7231 F4800 ; Move
G1 X26.7231 Y78.2645 E0.67859 F2400 ; Fill
G0 X27.3695 Y78.2645 F4800 ; Move
G1 X38.2645 Y67.3695 E0.64059 F2400 ; Fill
G0 X38.2645 Y68.0159 F4800 ; Move
G1 X28.0159 Y78.2645 E0.60258 F2400 ; Fill
G0 X28.6623 Y78.2645 F4800 ; Move
G1 X38.2645 Y68.6623 E0.56457 F2400 ; Fill
G0 X38.2645 Y69.3087 F4800 ; Move
G1 X29.3087 Y78.2645 E0.52657 F2400 ; Fill
G0 X29.9551 Y78.2645 F4800 ; Move
G1 X38.2645 Y69.9551 E0.48856 F2400 ; Fill
G0 X38.2645 Y70.6015 F4800 ; Move
G1 X30.6015 Y78.2645 E0.45055 F2400 ; Fill
G0 X31.2479 Y78.2645 F4800 ; Move
G1 X38.2645 Y71.2479 E0.41255 F2400 ; Fill
G0 X38.2645 Y71.8943 F4800 ; Move
G1 X31.8943 Y78.2645 E0.37454 F2400 ; Fill
G0 X32.5407 Y78.2645 F4800 ; Move
G1 X38.2645 Y72.5407 E0.33653 F2400 ; Fill
G0 X38.2645 Y73.1871 F4800 ; Move
G1 X33.1871 Y78.2645 E0.29853 F2400 ; Fill
G0 X33.8336 Y78.2645 F4800 ; Move
G1 X38.2645 Y73.8336 E0.26052 F2400 ; Fill
G0 X38.2645 Y74.48 F4800 ; Move
G1 X34.48 Y78.2645 E0.22252 F2400 ; Fill
G0 X35.1264 Y78.2645 F4800 ; Move
G1 X38.2645 Y75.1264 E0.18451 F2400 ; Fill
G0 X38.2645 Y75.7728 F4800 ; Move
G1 X35.7728 Y78.2645 E0.1465 F2400 ; Fill
G0 X36.4192 Y78.2645 F4800 ; Move
G1 X38.2645 Y76.4192 E0.1085 F2400 ; Fill
G0 X38.2645 Y77.0656 F4800 ; Move
G1 X37.0656 Y78.2645 E0.07049 F2400 ; Fill
G0 X37.712 Y78.2645 F4800 ; Move
G1 X38.2645 Y77.712 E0.03248 F2400 ; Fill
G0 Z0.4 F720 ; Move to z height
G1 E-1.5 F1800 ; Retract
G1 Z0.6 F720 ; Z hop
G0 X10.0 Y50.0 F4800 ; Move to box start
G1 Z0.4 F720 ; Z hop return
G1 E1.5 F1800 ; Un-retract
G1 X9.75 Y79.75 E1.2369 F3000 ; Draw perimeter (up)
G1 X39.75 Y79.75 E1.24726 F3000 ; Draw perimeter (right)
G1 X39.75 Y49.75 E1.24726 F3000 ; Draw perimeter (down)
G1 X9.75 Y49.75 E1.24726 F3000 ; Draw perimeter (down)
G0 X10.2071 Y50.2071 F4800 ; Step inwards to print next perimeter
G1 X10.2071 Y79.2929 E1.20925 F3000 ; Draw perimeter (up)
G1 X39.2929 Y79.2929 E1.20925 F3000 ; Draw perimeter (right)
G1 X39.2929 Y50.2071 E1.20925 F3000 ; Draw perimeter (down)
G1 X10.2071 Y50.2071 E1.20925 F3000 ; Draw perimeter (down)
G0 X10.6642 Y50.6642 F4800 ; Step inwards to print next perimeter
G1 X10.6642 Y78.8358 E1.17124 F3000 ; Draw perimeter (up)
G1 X38.8358 Y78.8358 E1.17124 F3000 ; Draw perimeter (right)
G1 X38.8358 Y50.6642 E1.17124 F3000 ; Draw perimeter (down)
G1 X10.6642 Y50.6642 E1.17124 F3000 ; Draw perimeter (down)
G0 X11.1212 Y51.1212 F4800 ; Step inwards to print next perimeter
G1 X11.1212 Y78.3788 E1.13324 F3000 ; Draw perimeter (up)
G1 X38.3788 Y78.3788 E1.13324 F3000 ; Draw perimeter (right)
G1 X38.3788 Y51.1212 E1.13324 F3000 ; Draw perimeter (down)
G1 X11.1212 Y51.1212 E1.13324 F3000 ; Draw perimeter (down)
G0 X11.4855 Y51.4855 F4800 ; Move to fill start
G0 X12.1319 Y51.4855 F4800 ; Move
G1 X11.4855 Y52.1319 E0.03801 F3000 ; Fill
G0 X11.4855 Y52.7783 F4800 ; Move
G1 X12.7783 Y51.4855 E0.07601 F3000 ; Fill
G0 X13.4247 Y51.4855 F4800 ; Move
G1 X11.4855 Y53.4247 E0.11402 F3000 ; Fill
G0 X11.4855 Y54.0711 F4800 ; Move
G1 X14.0711 Y51.4855 E0.15203 F3000 ; Fill
G0 X14.7175 Y51.4855 F4800 ; Move
G1 X11.4855 Y54.7175 E0.19003 F3000 ; Fill
G0 X11.4855 Y55.364 F4800 ; Move
G1 X15.364 Y51.4855 E0.22804 F3000 ; Fill
G0 X16.0104 Y51.4855 F4800 ; Move
G1 X11.4855 Y56.0104 E0.26604 F3000 ; Fill
G0 X11.4855 Y56.6568 F4800 ; Move
G1 X16.6568 Y51.4855 E0.30405 F3000 ; Fill
G0 X17.3032 Y51.4855 F4800 ; Move
G1 X11.4855 Y57.3032 E0.34206 F3000 ; Fill
G0 X11.4855 Y57.9496 F4800 ; Move
G1 X17.9496 Y51.4855 E0.38006 F3000 ; Fill
G0 X18.596 Y51.4855 F4800 ; Move
G1 X11.4855 Y58.596 E0.41807 F3000 ; Fill
G0 X11.4855 Y59.2424 F4800 ; Move
G1 X19.2424 Y51.4855 E0.45608 F3000 ; Fill
G0 X19.8888 Y51.4855 F4800 ; Move
G1 X11.4855 Y59.8888 E0.49408 F3000 ; Fill
G0 X11.4855 Y60.5352 F4800 ; Move
G1 X20.5352 Y51.4855 E0.53209 F3000 ; Fill
G0 X21.1816 Y51.4855 F4800 ; Move
G1 X11.4855 Y61.1816 E0.57009 F3000 ; Fill
G0 X11.4855 Y61.828 F4800 ; Move
G1 X21.828 Y51.4855 E0.6081 F3000 ; Fill
G0 X22.4744 Y51.4855 F4800 ; Move
G1 X11.4855 Y62.4744 E0.64611 F3000 ; Fill
G0 X11.4855 Y63.1209 F4800 ; Move
G1 X23.1209 Y51.4855 E0.68411 F3000 ; Fill
G0 X23.7673 Y51.4855 F4800 ; Move
G1 X11.4855 Y63.7673 E0.72212 F3000 ; Fill
G0 X11.4855 Y64.4137 F4800 ; Move
G1 X24.4137 Y51.4855 E0.76013 F3000 ; Fill
G0 X25.0601 Y51.4855 F4800 ; Move
G1 X11.4855 Y65.0601 E0.79813 F3000 ; Fill
G0 X11.4855 Y65.7065 F4800 ; Move
G1 X25.7065 Y51.4855 E0.83614 F3000 ; Fill
G0 X26.3529 Y51.4855 F4800 ; Move
G1 X11.4855 Y66.3529 E0.87415 F3000 ; Fill
G0 X11.4855 Y66.9993 F4800 ; Move
G1 X26.9993 Y51.4855 E0.91215 F3000 ; Fill
G0 X27.6457 Y51.4855 F4800 ; Move
G1 X11.4855 Y67.6457 E0.95016 F3000 ; Fill
G0 X11.4855 Y68.2921 F4800 ; Move
G1 X28.2921 Y51.4855 E0.98816 F3000 ; Fill
G0 X28.9385 Y51.4855 F4800 ; Move
G1 X11.4855 Y68.9385 E1.02617 F3000 ; Fill
G0 X11.4855 Y69.5849 F4800 ; Move
G1 X29.5849 Y51.4855 E1.06418 F3000 ; Fill
G0 X30.2313 Y51.4855 F4800 ; Move
G1 X11.4855 Y70.2313 E1.10218 F3000 ; Fill
G0 X11.4855 Y70.8778 F4800 ; Move
G1 X30.8778 Y51.4855 E1.14019 F3000 ; Fill
G0 X31.5242 Y51.4855 F4800 ; Move
G1 X11.4855 Y71.5242 E1.1782 F3000 ; Fill
G0 X11.4855 Y72.1706 F4800 ; Move
G1 X32.1706 Y51.4855 E1.2162 F3000 ; Fill
G0 X32.817 Y51.4855 F4800 ; Move
G1 X11.4855 Y72.817 E1.25421 F3000 ; Fill
G0 X11.4855 Y73.4634 F4800 ; Move
G1 X33.4634 Y51.4855 E1.29222 F3000 ; Fill
G0 X34.1098 Y51.4855 F4800 ; Move
G1 X11.4855 Y74.1098 E1.33022 F3000 ; Fill
G0 X11.4855 Y74.7562 F4800 ; Move
G1 X34.7562 Y51.4855 E1.36823 F3000 ; Fill
G0 X35.4026 Y51.4855 F4800 ; Move
G1 X11.4855 Y75.4026 E1.40623 F3000 ; Fill
G0 X11.4855 Y76.049 F4800 ; Move
G1 X36.049 Y51.4855 E1.44424 F3000 ; Fill
G0 X36.6954 Y51.4855 F4800 ; Move
G1 X11.4855 Y76.6954 E1.48225 F3000 ; Fill
G0 X11.4855 Y77.3418 F4800 ; Move
G1 X37.3418 Y51.4855 E1.52025 F3000 ; Fill
G0 X37.9882 Y51.4855 F4800 ; Move
G1 X11.4855 Y77.9882 E1.55826 F3000 ; Fill
G0 X11.8557 Y78.2645 F4800 ; Move
G1 X38.2645 Y51.8557 E1.55274 F3000 ; Fill
G0 X38.2645 Y52.5021 F4800 ; Move
G1 X12.5021 Y78.2645 E1.51473 F3000 ; Fill
G0 X13.1485 Y78.2645 F4800 ; Move
G1 X38.2645 Y53.1485 E1.47672 F3000 ; Fill
G0 X38.2645 Y53.7949 F4800 ; Move
G1 X13.7949 Y78.2645 E1.43872 F3000 ; Fill
G0 X14.4413 Y78.2645 F4800 ; Move
G1 X38.2645 Y54.4413 E1.40071 F3000 ; Fill
G0 X38.2645 Y55.0877 F4800 ; Move
G1 X15.0877 Y78.2645 E1.36271 F3000 ; Fill
G0 X15.7341 Y78.2645 F4800 ; Move
G1 X38.2645 Y55.7341 E1.3247 F3000 ; Fill
G0 X38.2645 Y56.3805 F4800 ; Move
G1 X16.3805 Y78.2645 E1.28669 F3000 ; Fill
G0 X17.0269 Y78.2645 F4800 ; Move
G1 X38.2645 Y57.0269 E1.24869 F3000 ; Fill
G0 X38.2645 Y57.6733 F4800 ; Move
G1 X17.6733 Y78.2645 E1.21068 F3000 ; Fill
G0 X18.3198 Y78.2645 F4800 ; Move
G1 X38.2645 Y58.3198 E1.17267 F3000 ; Fill
G0 X38.2645 Y58.9662 F4800 ; Move
G1 X18.9662 Y78.2645 E1.13467 F3000 ; Fill
G0 X19.6126 Y78.2645 F4800 ; Move
G1 X38.2645 Y59.6126 E1.09666 F3000 ; Fill
G0 X38.2645 Y60.259 F4800 ; Move
G1 X20.259 Y78.2645 E1.05866 F3000 ; Fill
G0 X20.9054 Y78.2645 F4800 ; Move
G1 X38.2645 Y60.9054 E1.02065 F3000 ; Fill
G0 X38.2645 Y61.5518 F4800 ; Move
G1 X21.5518 Y78.2645 E0.98264 F3000 ; Fill
G0 X22.1982 Y78.2645 F4800 ; Move
G1 X38.2645 Y62.1982 E0.94464 F3000 ; Fill
G0 X38.2645 Y62.8446 F4800 ; Move
G1 X22.8446 Y78.2645 E0.90663 F3000 ; Fill
G0 X23.491 Y78.2645 F4800 ; Move
G1 X38.2645 Y63.491 E0.86862 F3000 ; Fill
G0 X38.2645 Y64.1374 F4800 ; Move
G1 X24.1374 Y78.2645 E0.83062 F3000 ; Fill
G0 X24.7838 Y78.2645 F4800 ; Move
G1 X38.2645 Y64.7838 E0.79261 F3000 ; Fill
G0 X38.2645 Y65.4302 F4800 ; Move
G1 X25.4302 Y78.2645 E0.7546 F3000 ; Fill
G0 X26.0767 Y78.2645 F4800 ; Move
G1 X38.2645 Y66.0767 E0.7166 F3000 ; Fill
G0 X38.2645 Y66.7231 F4800 ; Move
G1 X26.7231 Y78.2645 E0.67859 F3000 ; Fill
G0 X27.3695 Y78.2645 F4800 ; Move
G1 X38.2645 Y67.3695 E0.64059 F3000 ; Fill
G0 X38.2645 Y68.0159 F4800 ; Move
G1 X28.0159 Y78.2645 E0.60258 F3000 ; Fill
G0 X28.6623 Y78.2645 F4800 ; Move
G1 X38.2645 Y68.6623 E0.56457 F3000 ; Fill
G0 X38.2645 Y69.3087 F4800 ; Move
G1 X29.3087 Y78.2645 E0.52657 F3000 ; Fill
G0 X29.9551 Y78.2645 F4800 ; Move
G1 X38.2645 Y69.9551 E0.48856 F3000 ; Fill
G0 X38.2645 Y70.6015 F4800 ; Move
G1 X30.6015 Y78.2645 E0.45055 F3000 ; Fill
G0 X31.2479 Y78.2645 F4800 ; Move
G1 X38.2645 Y71.2479 E0.41255 F3000 ; Fill
G0 X38.2645 Y71.8943 F4800 ; Move
G1 X31.8943 Y78.2645 E0.37454 F3000 ; Fill
G0 X32.5407 Y78.2645 F4800 ; Move
