; generated by PrusaSlicer 2.5.0+win64 on 2023-01-31 at 10:18:11 UTC 




M73 P0 R0.45 
M73 Q0 S0.45 
M201 X1000 Y1000 Z200 E5000 ; sets maximum accelerations, mm/sec^2 
M203 X200 Y200 Z12 E120 ; sets maximum feedrates, mm / sec
M204 P1250 R1250 T1250 ; sets acceleration (P, T) and retract acceleration (R), mm/sec^2 
M205 X8.00 Y8.00 Z0.40 E4.50 ; sets the jerk limits, mm/sec
M205 S0 T0 ; sets the minimum extruding and travel feed rate, mm/sec 
M107
;TYPE:Custom
M862.3 P "MK3S" ; printer model check
M862.1 P0.4 ; nozzle diameter check
M115 U3.11.0 ; tell printer latest fw version
G90 ; use absolute coordinates
M83 ; extruder relative mode
M104 S230 ; set extruder temp
M140 S0 ; set bed temp
M109 S230 ; wait for extruder temp
G28 W ; home all without mesh bed level
G80 ; mesh bed leveling

G1 Z0.2 F720 
G1 Y183 F1000 
G92 E0 
G1 X40 E9 F1000 ; intro line 
G1 X60 E9 F1000 ; intro line

G0 Z0.5 F720 ; Move to z height
G92 E0 
M221 S95

; Don't change E values below. Excessive value can damage the printer.

M907 E538 ; set extruder motor current
G21 ; set units to millimeters
G90 ; use absolute coordinates
M83 ; use relative distances for extrusion
M900 K0 ; Filament gcode LA 1.5
M107
;LAYER_CHANGE
;Z:0.2
;HEIGHT:0.2
;BEFORE_LAYER_CHANGE
G92 E0.0
;0.2


G0 Z3.2 F720 ; Move to z height
G1 E-1.5 F1800 ; Retract
G1 Z3.4 F720 ; Z hop
G0 X0.0 Y8.0 F4800 ; Moving to plane position
G1 Z3.2 F720 ; Z hop return
G1 E1.5 F1800 ; Un-retract
G1 E-1.5 F1800 ; Retract
G1 Z3.4 F720 ; Z hop
G0 X10.0 Y8.0 F4800 ; Moving to plane position
G1 Z3.2 F720 ; Z hop return
G1 E1.5 F1800 ; Un-retract
G0 Z0.2 F720 ; Move to z height
M204 S800
; printing plane start id:0 copy 0 
G0 Z0.2 F720 ; Move to z height
G0 X10.0 Y10.0 F4800 ; Move to box start
G1 X9.775 Y39.775 E1.11414 F2400 ; Draw perimeter (up)
G1 X39.775 Y39.775 E1.12253 F2400 ; Draw perimeter (right)
G1 X39.775 Y9.775 E1.12253 F2400 ; Draw perimeter (down)
G1 X9.775 Y9.775 E1.12253 F2400 ; Draw perimeter (down)
G0 X10.1821 Y10.1821 F4800 ; Step inwards to print next perimeter
G1 X10.1821 Y39.3679 E1.09207 F2400 ; Draw perimeter (up)
G1 X39.3679 Y39.3679 E1.09207 F2400 ; Draw perimeter (right)
G1 X39.3679 Y10.1821 E1.09207 F2400 ; Draw perimeter (down)
G1 X10.1821 Y10.1821 E1.09207 F2400 ; Draw perimeter (down)
G0 X10.5892 Y10.5892 F4800 ; Step inwards to print next perimeter
G1 X10.5892 Y38.9608 E1.0616 F2400 ; Draw perimeter (up)
G1 X38.9608 Y38.9608 E1.0616 F2400 ; Draw perimeter (right)
G1 X38.9608 Y10.5892 E1.0616 F2400 ; Draw perimeter (down)
G1 X10.5892 Y10.5892 E1.0616 F2400 ; Draw perimeter (down)
G0 X10.9962 Y10.9962 F4800 ; Step inwards to print next perimeter
G1 X10.9962 Y38.5538 E1.03114 F2400 ; Draw perimeter (up)
G1 X38.5538 Y38.5538 E1.03114 F2400 ; Draw perimeter (right)
G1 X38.5538 Y10.9962 E1.03114 F2400 ; Draw perimeter (down)
G1 X10.9962 Y10.9962 E1.03114 F2400 ; Draw perimeter (down)
G0 X11.323 Y11.323 F4800 ; Move to fill start
G0 X11.8987 Y11.323 F4800 ; Move
G1 X11.323 Y11.8987 E0.03046 F2400 ; Fill
G0 X11.323 Y12.4744 F4800 ; Move
G1 X12.4744 Y11.323 E0.06093 F2400 ; Fill
G0 X13.0501 Y11.323 F4800 ; Move
G1 X11.323 Y13.0501 E0.09139 F2400 ; Fill
G0 X11.323 Y13.6258 F4800 ; Move
G1 X13.6258 Y11.323 E0.12186 F2400 ; Fill
G0 X14.2015 Y11.323 F4800 ; Move
G1 X11.323 Y14.2015 E0.15232 F2400 ; Fill
G0 X11.323 Y14.7772 F4800 ; Move
G1 X14.7772 Y11.323 E0.18278 F2400 ; Fill
G0 X15.3529 Y11.323 F4800 ; Move
G1 X11.323 Y15.3529 E0.21325 F2400 ; Fill
G0 X11.323 Y15.9286 F4800 ; Move
G1 X15.9286 Y11.323 E0.24371 F2400 ; Fill
G0 X16.5043 Y11.323 F4800 ; Move
G1 X11.323 Y16.5043 E0.27418 F2400 ; Fill
G0 X11.323 Y17.08 F4800 ; Move
G1 X17.08 Y11.323 E0.30464 F2400 ; Fill
G0 X17.6557 Y11.323 F4800 ; Move
G1 X11.323 Y17.6557 E0.3351 F2400 ; Fill
G0 X11.323 Y18.2314 F4800 ; Move
G1 X18.2314 Y11.323 E0.36557 F2400 ; Fill
G0 X18.8071 Y11.323 F4800 ; Move
G1 X11.323 Y18.8071 E0.39603 F2400 ; Fill
G0 X11.323 Y19.3828 F4800 ; Move
G1 X19.3828 Y11.323 E0.42649 F2400 ; Fill
G0 X19.9585 Y11.323 F4800 ; Move
G1 X11.323 Y19.9585 E0.45696 F2400 ; Fill
G0 X11.323 Y20.5342 F4800 ; Move
G1 X20.5342 Y11.323 E0.48742 F2400 ; Fill
G0 X21.1099 Y11.323 F4800 ; Move
G1 X11.323 Y21.1099 E0.51789 F2400 ; Fill
G0 X11.323 Y21.6856 F4800 ; Move
G1 X21.6856 Y11.323 E0.54835 F2400 ; Fill
G0 X22.2613 Y11.323 F4800 ; Move
G1 X11.323 Y22.2613 E0.57881 F2400 ; Fill
G0 X11.323 Y22.837 F4800 ; Move
G1 X22.837 Y11.323 E0.60928 F2400 ; Fill
G0 X23.4127 Y11.323 F4800 ; Move
G1 X11.323 Y23.4127 E0.63974 F2400 ; Fill
G0 X11.323 Y23.9884 F4800 ; Move
G1 X23.9884 Y11.323 E0.67021 F2400 ; Fill
G0 X24.5641 Y11.323 F4800 ; Move
G1 X11.323 Y24.5641 E0.70067 F2400 ; Fill
G0 X11.323 Y25.1397 F4800 ; Move
G1 X25.1397 Y11.323 E0.73113 F2400 ; Fill
G0 X25.7154 Y11.323 F4800 ; Move
G1 X11.323 Y25.7154 E0.7616 F2400 ; Fill
G0 X11.323 Y26.2911 F4800 ; Move
G1 X26.2911 Y11.323 E0.79206 F2400 ; Fill
G0 X26.8668 Y11.323 F4800 ; Move
G1 X11.323 Y26.8668 E0.82253 F2400 ; Fill
G0 X11.323 Y27.4425 F4800 ; Move
G1 X27.4425 Y11.323 E0.85299 F2400 ; Fill
G0 X28.0182 Y11.323 F4800 ; Move
G1 X11.323 Y28.0182 E0.88345 F2400 ; Fill
G0 X11.323 Y28.5939 F4800 ; Move
G1 X28.5939 Y11.323 E0.91392 F2400 ; Fill
G0 X29.1696 Y11.323 F4800 ; Move
G1 X11.323 Y29.1696 E0.94438 F2400 ; Fill
G0 X11.323 Y29.7453 F4800 ; Move
G1 X29.7453 Y11.323 E0.97485 F2400 ; Fill
G0 X30.321 Y11.323 F4800 ; Move
G1 X11.323 Y30.321 E1.00531 F2400 ; Fill
G0 X11.323 Y30.8967 F4800 ; Move
G1 X30.8967 Y11.323 E1.03577 F2400 ; Fill
G0 X31.4724 Y11.323 F4800 ; Move
G1 X11.323 Y31.4724 E1.06624 F2400 ; Fill
G0 X11.323 Y32.0481 F4800 ; Move
G1 X32.0481 Y11.323 E1.0967 F2400 ; Fill
G0 X32.6238 Y11.323 F4800 ; Move
G1 X11.323 Y32.6238 E1.12717 F2400 ; Fill
G0 X11.323 Y33.1995 F4800 ; Move
G1 X33.1995 Y11.323 E1.15763 F2400 ; Fill
G0 X33.7752 Y11.323 F4800 ; Move
G1 X11.323 Y33.7752 E1.18809 F2400 ; Fill
G0 X11.323 Y34.3509 F4800 ; Move
G1 X34.3509 Y11.323 E1.21856 F2400 ; Fill
G0 X34.9266 Y11.323 F4800 ; Move
G1 X11.323 Y34.9266 E1.24902 F2400 ; Fill
G0 X11.323 Y35.5023 F4800 ; Move
G1 X35.5023 Y11.323 E1.27948 F2400 ; Fill
G0 X36.078 Y11.323 F4800 ; Move
G1 X11.323 Y36.078 E1.30995 F2400 ; Fill
G0 X11.323 Y36.6537 F4800 ; Move
G1 X36.6537 Y11.323 E1.34041 F2400 ; Fill
G0 X37.2294 Y11.323 F4800 ; Move
G1 X11.323 Y37.2294 E1.37088 F2400 ; Fill
G0 X11.323 Y37.8051 F4800 ; Move
G1 X37.8051 Y11.323 E1.40134 F2400 ; Fill
G0 X38.3808 Y11.323 F4800 ; Move
G1 X11.323 Y38.3808 E1.4318 F2400 ; Fill
G0 X11.8275 Y38.452 F4800 ; Move
G1 X38.452 Y11.8275 E1.40888 F2400 ; Fill
G0 X38.452 Y12.4032 F4800 ; Move
G1 X12.4032 Y38.452 E1.37841 F2400 ; Fill
G0 X12.9789 Y38.452 F4800 ; Move
G1 X38.452 Y12.9789 E1.34795 F2400 ; Fill
G0 X38.452 Y13.5546 F4800 ; Move
G1 X13.5546 Y38.452 E1.31748 F2400 ; Fill
G0 X14.1303 Y38.452 F4800 ; Move
G1 X38.452 Y14.1303 E1.28702 F2400 ; Fill
G0 X38.452 Y14.706 F4800 ; Move
G1 X14.706 Y38.452 E1.25656 F2400 ; Fill
G0 X15.2817 Y38.452 F4800 ; Move
G1 X38.452 Y15.2817 E1.22609 F2400 ; Fill
G0 X38.452 Y15.8574 F4800 ; Move
G1 X15.8574 Y38.452 E1.19563 F2400 ; Fill
G0 X16.4331 Y38.452 F4800 ; Move
G1 X38.452 Y16.4331 E1.16516 F2400 ; Fill
G0 X38.452 Y17.0088 F4800 ; Move
G1 X17.0088 Y38.452 E1.1347 F2400 ; Fill
G0 X17.5845 Y38.452 F4800 ; Move
G1 X38.452 Y17.5845 E1.10424 F2400 ; Fill
G0 X38.452 Y18.1602 F4800 ; Move
G1 X18.1602 Y38.452 E1.07377 F2400 ; Fill
G0 X18.7359 Y38.452 F4800 ; Move
G1 X38.452 Y18.7359 E1.04331 F2400 ; Fill
G0 X38.452 Y19.3116 F4800 ; Move
G1 X19.3116 Y38.452 E1.01284 F2400 ; Fill
G0 X19.8873 Y38.452 F4800 ; Move
G1 X38.452 Y19.8873 E0.98238 F2400 ; Fill
G0 X38.452 Y20.463 F4800 ; Move
G1 X20.463 Y38.452 E0.95192 F2400 ; Fill
G0 X21.0387 Y38.452 F4800 ; Move
G1 X38.452 Y21.0387 E0.92145 F2400 ; Fill
G0 X38.452 Y21.6144 F4800 ; Move
G1 X21.6144 Y38.452 E0.89099 F2400 ; Fill
G0 X22.1901 Y38.452 F4800 ; Move
G1 X38.452 Y22.1901 E0.86053 F2400 ; Fill
G0 X38.452 Y22.7658 F4800 ; Move
G1 X22.7658 Y38.452 E0.83006 F2400 ; Fill
G0 X23.3415 Y38.452 F4800 ; Move
G1 X38.452 Y23.3415 E0.7996 F2400 ; Fill
G0 X38.452 Y23.9172 F4800 ; Move
G1 X23.9172 Y38.452 E0.76913 F2400 ; Fill
G0 X24.4929 Y38.452 F4800 ; Move
G1 X38.452 Y24.4929 E0.73867 F2400 ; Fill
G0 X38.452 Y25.0686 F4800 ; Move
G1 X25.0686 Y38.452 E0.70821 F2400 ; Fill
G0 X25.6442 Y38.452 F4800 ; Move
G1 X38.452 Y25.6442 E0.67774 F2400 ; Fill
G0 X38.452 Y26.2199 F4800 ; Move
G1 X26.2199 Y38.452 E0.64728 F2400 ; Fill
G0 X26.7956 Y38.452 F4800 ; Move
G1 X38.452 Y26.7956 E0.61681 F2400 ; Fill
G0 X38.452 Y27.3713 F4800 ; Move
G1 X27.3713 Y38.452 E0.58635 F2400 ; Fill
G0 X27.947 Y38.452 F4800 ; Move
G1 X38.452 Y27.947 E0.55589 F2400 ; Fill
G0 X38.452 Y28.5227 F4800 ; Move
G1 X28.5227 Y38.452 E0.52542 F2400 ; Fill
G0 X29.0984 Y38.452 F4800 ; Move
G1 X38.452 Y29.0984 E0.49496 F2400 ; Fill
G0 X38.452 Y29.6741 F4800 ; Move
G1 X29.6741 Y38.452 E0.46449 F2400 ; Fill
G0 X30.2498 Y38.452 F4800 ; Move
G1 X38.452 Y30.2498 E0.43403 F2400 ; Fill
G0 X38.452 Y30.8255 F4800 ; Move
G1 X30.8255 Y38.452 E0.40357 F2400 ; Fill
G0 X31.4012 Y38.452 F4800 ; Move
G1 X38.452 Y31.4012 E0.3731 F2400 ; Fill
G0 X38.452 Y31.9769 F4800 ; Move
G1 X31.9769 Y38.452 E0.34264 F2400 ; Fill
G0 X32.5526 Y38.452 F4800 ; Move
G1 X38.452 Y32.5526 E0.31217 F2400 ; Fill
G0 X38.452 Y33.1283 F4800 ; Move
G1 X33.1283 Y38.452 E0.28171 F2400 ; Fill
G0 X33.704 Y38.452 F4800 ; Move
G1 X38.452 Y33.704 E0.25125 F2400 ; Fill
G0 X38.452 Y34.2797 F4800 ; Move
G1 X34.2797 Y38.452 E0.22078 F2400 ; Fill
G0 X34.8554 Y38.452 F4800 ; Move
G1 X38.452 Y34.8554 E0.19032 F2400 ; Fill
G0 X38.452 Y35.4311 F4800 ; Move
G1 X35.4311 Y38.452 E0.15985 F2400 ; Fill
G0 X36.0068 Y38.452 F4800 ; Move
G1 X38.452 Y36.0068 E0.12939 F2400 ; Fill
G0 X38.452 Y36.5825 F4800 ; Move
G1 X36.5825 Y38.452 E0.09893 F2400 ; Fill
G0 X37.1582 Y38.452 F4800 ; Move
G1 X38.452 Y37.1582 E0.06846 F2400 ; Fill
G0 X38.452 Y37.7339 F4800 ; Move
G1 X37.7339 Y38.452 E0.038 F2400 ; Fill
G0 X38.3096 Y38.452 F4800 ; Move
G1 X38.452 Y38.3096 E0.00754 F2400 ; Fill
G1 E-1.5 F1800 ; Retract
G0 Z0.4 F720 ; Move to z height
G0 X10.0 Y10.0 F4800 ; Move to box start
G1 Z0.4 F720 ; Z hop return
G1 E1.5 F1800 ; Un-retract
G1 X9.775 Y39.775 E1.11414 F3000 ; Draw perimeter (up)
G1 X39.775 Y39.775 E1.12253 F3000 ; Draw perimeter (right)
G1 X39.775 Y9.775 E1.12253 F3000 ; Draw perimeter (down)
G1 X9.775 Y9.775 E1.12253 F3000 ; Draw perimeter (down)
G0 X10.1821 Y10.1821 F4800 ; Step inwards to print next perimeter
G1 X10.1821 Y39.3679 E1.09207 F3000 ; Draw perimeter (up)
G1 X39.3679 Y39.3679 E1.09207 F3000 ; Draw perimeter (right)
G1 X39.3679 Y10.1821 E1.09207 F3000 ; Draw perimeter (down)
G1 X10.1821 Y10.1821 E1.09207 F3000 ; Draw perimeter (down)
G0 X10.5892 Y10.5892 F4800 ; Step inwards to print next perimeter
G1 X10.5892 Y38.9608 E1.0616 F3000 ; Draw perimeter (up)
G1 X38.9608 Y38.9608 E1.0616 F3000 ; Draw perimeter (right)
G1 X38.9608 Y10.5892 E1.0616 F3000 ; Draw perimeter (down)
G1 X10.5892 Y10.5892 E1.0616 F3000 ; Draw perimeter (down)
G0 X10.9962 Y10.9962 F4800 ; Step inwards to print next perimeter
G1 X10.9962 Y38.5538 E1.03114 F3000 ; Draw perimeter (up)
G1 X38.5538 Y38.5538 E1.03114 F3000 ; Draw perimeter (right)
G1 X38.5538 Y10.9962 E1.03114 F3000 ; Draw perimeter (down)
G1 X10.9962 Y10.9962 E1.03114 F3000 ; Draw perimeter (down)
G0 X11.323 Y11.323 F4800 ; Move to fill start
G0 X11.8987 Y11.323 F4800 ; Move
G1 X11.323 Y11.8987 E0.03046 F3000 ; Fill
G0 X11.323 Y12.4744 F4800 ; Move
G1 X12.4744 Y11.323 E0.06093 F3000 ; Fill
G0 X13.0501 Y11.323 F4800 ; Move
G1 X11.323 Y13.0501 E0.09139 F3000 ; Fill
G0 X11.323 Y13.6258 F4800 ; Move
G1 X13.6258 Y11.323 E0.12186 F3000 ; Fill
G0 X14.2015 Y11.323 F4800 ; Move
G1 X11.323 Y14.2015 E0.15232 F3000 ; Fill
G0 X11.323 Y14.7772 F4800 ; Move
G1 X14.7772 Y11.323 E0.18278 F3000 ; Fill
G0 X15.3529 Y11.323 F4800 ; Move
G1 X11.323 Y15.3529 E0.21325 F3000 ; Fill
G0 X11.323 Y15.9286 F4800 ; Move
G1 X15.9286 Y11.323 E0.24371 F3000 ; Fill
G0 X16.5043 Y11.323 F4800 ; Move
G1 X11.323 Y16.5043 E0.27418 F3000 ; Fill
G0 X11.323 Y17.08 F4800 ; Move
G1 X17.08 Y11.323 E0.30464 F3000 ; Fill
G0 X17.6557 Y11.323 F4800 ; Move
G1 X11.323 Y17.6557 E0.3351 F3000 ; Fill
G0 X11.323 Y18.2314 F4800 ; Move
G1 X18.2314 Y11.323 E0.36557 F3000 ; Fill
G0 X18.8071 Y11.323 F4800 ; Move
G1 X11.323 Y18.8071 E0.39603 F3000 ; Fill
G0 X11.323 Y19.3828 F4800 ; Move
G1 X19.3828 Y11.323 E0.42649 F3000 ; Fill
G0 X19.9585 Y11.323 F4800 ; Move
G1 X11.323 Y19.9585 E0.45696 F3000 ; Fill
G0 X11.323 Y20.5342 F4800 ; Move
G1 X20.5342 Y11.323 E0.48742 F3000 ; Fill
G0 X21.1099 Y11.323 F4800 ; Move
G1 X11.323 Y21.1099 E0.51789 F3000 ; Fill
G0 X11.323 Y21.6856 F4800 ; Move
G1 X21.6856 Y11.323 E0.54835 F3000 ; Fill
G0 X22.2613 Y11.323 F4800 ; Move
G1 X11.323 Y22.2613 E0.57881 F3000 ; Fill
G0 X11.323 Y22.837 F4800 ; Move
G1 X22.837 Y11.323 E0.60928 F3000 ; Fill
G0 X23.4127 Y11.323 F4800 ; Move
G1 X11.323 Y23.4127 E0.63974 F3000 ; Fill
G0 X11.323 Y23.9884 F4800 ; Move
G1 X23.9884 Y11.323 E0.67021 F3000 ; Fill
G0 X24.5641 Y11.323 F4800 ; Move
G1 X11.323 Y24.5641 E0.70067 F3000 ; Fill
G0 X11.323 Y25.1397 F4800 ; Move
G1 X25.1397 Y11.323 E0.73113 F3000 ; Fill
G0 X25.7154 Y11.323 F4800 ; Move
G1 X11.323 Y25.7154 E0.7616 F3000 ; Fill
G0 X11.323 Y26.2911 F4800 ; Move
G1 X26.2911 Y11.323 E0.79206 F3000 ; Fill
G0 X26.8668 Y11.323 F4800 ; Move
G1 X11.323 Y26.8668 E0.82253 F3000 ; Fill
G0 X11.323 Y27.4425 F4800 ; Move
G1 X27.4425 Y11.323 E0.85299 F3000 ; Fill
G0 X28.0182 Y11.323 F4800 ; Move
G1 X11.323 Y28.0182 E0.88345 F3000 ; Fill
G0 X11.323 Y28.5939 F4800 ; Move
G1 X28.5939 Y11.323 E0.91392 F3000 ; Fill
G0 X29.1696 Y11.323 F4800 ; Move
G1 X11.323 Y29.1696 E0.94438 F3000 ; Fill
G0 X11.323 Y29.7453 F4800 ; Move
G1 X29.7453 Y11.323 E0.97485 F3000 ; Fill
G0 X30.321 Y11.323 F4800 ; Move
G1 X11.323 Y30.321 E1.00531 F3000 ; Fill
G0 X11.323 Y30.8967 F4800 ; Move
G1 X30.8967 Y11.323 E1.03577 F3000 ; Fill
G0 X31.4724 Y11.323 F4800 ; Move
G1 X11.323 Y31.4724 E1.06624 F3000 ; Fill
G0 X11.323 Y32.0481 F4800 ; Move
G1 X32.0481 Y11.323 E1.0967 F3000 ; Fill
G0 X32.6238 Y11.323 F4800 ; Move
G1 X11.323 Y32.6238 E1.12717 F3000 ; Fill
G0 X11.323 Y33.1995 F4800 ; Move
G1 X33.1995 Y11.323 E1.15763 F3000 ; Fill
G0 X33.7752 Y11.323 F4800 ; Move
G1 X11.323 Y33.7752 E1.18809 F3000 ; Fill
G0 X11.323 Y34.3509 F4800 ; Move
G1 X34.3509 Y11.323 E1.21856 F3000 ; Fill
G0 X34.9266 Y11.323 F4800 ; Move
G1 X11.323 Y34.9266 E1.24902 F3000 ; Fill
G0 X11.323 Y35.5023 F4800 ; Move
G1 X35.5023 Y11.323 E1.27948 F3000 ; Fill
G0 X36.078 Y11.323 F4800 ; Move
G1 X11.323 Y36.078 E1.30995 F3000 ; Fill
G0 X11.323 Y36.6537 F4800 ; Move
G1 X36.6537 Y11.323 E1.34041 F3000 ; Fill
G0 X37.2294 Y11.323 F4800 ; Move
G1 X11.323 Y37.2294 E1.37088 F3000 ; Fill
G0 X11.323 Y37.8051 F4800 ; Move
G1 X37.8051 Y11.323 E1.40134 F3000 ; Fill
G0 X38.3808 Y11.323 F4800 ; Move
G1 X11.323 Y38.3808 E1.4318 F3000 ; Fill
G0 X11.8275 Y38.452 F4800 ; Move
G1 X38.452 Y11.8275 E1.40888 F3000 ; Fill
G0 X38.452 Y12.4032 F4800 ; Move
G1 X12.4032 Y38.452 E1.37841 F3000 ; Fill
G0 X12.9789 Y38.452 F4800 ; Move
G1 X38.452 Y12.9789 E1.34795 F3000 ; Fill
G0 X38.452 Y13.5546 F4800 ; Move
G1 X13.5546 Y38.452 E1.31748 F3000 ; Fill
G0 X14.1303 Y38.452 F4800 ; Move
G1 X38.452 Y14.1303 E1.28702 F3000 ; Fill
G0 X38.452 Y14.706 F4800 ; Move
G1 X14.706 Y38.452 E1.25656 F3000 ; Fill
G0 X15.2817 Y38.452 F4800 ; Move
G1 X38.452 Y15.2817 E1.22609 F3000 ; Fill
G0 X38.452 Y15.8574 F4800 ; Move
G1 X15.8574 Y38.452 E1.19563 F3000 ; Fill
G0 X16.4331 Y38.452 F4800 ; Move
G1 X38.452 Y16.4331 E1.16516 F3000 ; Fill
G0 X38.452 Y17.0088 F4800 ; Move
G1 X17.0088 Y38.452 E1.1347 F3000 ; Fill
G0 X17.5845 Y38.452 F4800 ; Move
G1 X38.452 Y17.5845 E1.10424 F3000 ; Fill
G0 X38.452 Y18.1602 F4800 ; Move
G1 X18.1602 Y38.452 E1.07377 F3000 ; Fill
G0 X18.7359 Y38.452 F4800 ; Move
G1 X38.452 Y18.7359 E1.04331 F3000 ; Fill
G0 X38.452 Y19.3116 F4800 ; Move
G1 X19.3116 Y38.452 E1.01284 F3000 ; Fill
G0 X19.8873 Y38.452 F4800 ; Move
G1 X38.452 Y19.8873 E0.98238 F3000 ; Fill
G0 X38.452 Y20.463 F4800 ; Move
G1 X20.463 Y38.452 E0.95192 F3000 ; Fill
